!!!!SEGMENT: pl-cz--ii-240--006_zeidler-jozef--stabat-mater-fac-me-vere.krn
!!!cenid: 18xx:308
!!!COM: Zeidler, Józef
!!!COM-rismID: pe30003401
!!!CDT: ~1744-1806
!!!CNT: Polish
!!!OPR: Stabat Mater
!!!OTL: Fac me vere
!!!OMV: 006
!!!PDT: 1840
!!!AGN: Sacred
!!!SMS-siglum: PL-CZ
!!!SMS-shelfmark: II-240
!!!SMS-shelfwork: 001-006 M
!!!NIFC-rismSourceID: 300001451
!!!NIFC-rismChildID: 300001451
!!!NIFC-islandoraID: pl-cz:33216
!!!URL-pdf-islandora: https://repozytorium.nifc.pl/islandora/object/pl-cz%3A33216/datastream/PDF/view
!!!URL-scan:
!!!ONB-nifc: UWAGA: części: Stabat Mater, Quae merebat, Quis est homo, Quis non posset, Eja Mater, Fac me vere, Virgo virginum praeclara, Inflammatus, Quando corpus morietur, Amen
!!!AIN: 1 alto 1 bass 1 organ 1 soprn 1 tenor 1 viola 2 violn
!!!key: c
!!!OMD:
!!!OMD-mod: Adagio
!!!filter-modern: sic -sq | shed -e "s/TX(.*):t=P:/tx$1:t=P:/LG" | shed -e "s/^(\d+[\/\\]right)/$1yy/I;s/^(\d+[\/\\]left)/$1yy/I" | shed -e "s/:rj/:RJ/L" | shed -k -e "s/([^a-gA-Gn#X-])[<>]/$1/g" | shed -e "s/LO:DY:(a|b|rj)/LO:dy:$1/L" | shed -e "s/-//B" | modori -m | tie -s | autostem -r | humtr -p
**kern	**fba	**dynam	**kern	**text	**dynam	**kern	**text	**dynam	**kern	**text	**dynam	**kern	**text	**dynam	**kern	**dynam	**kern	**dynam	**kern	**dynam
*group3	*	*	*group2	*	*	*group2	*	*	*group2	*	*	*group2	*	*	*group1	*	*group1	*	*group1	*
*part8	*part8	*part8	*part7	*part7	*part7	*part6	*part6	*part6	*part5	*part5	*part5	*part4	*part4	*	*part3	*part3	*part2	*part2	*part1	*part1
*staff8	*	*	*staff7	*staff7	*	*staff6	*staff6	*	*staff5	*staff5	*	*staff4	*staff4	*	*staff3	*	*staff2	*	*staff1	*
*Iorgan	*	*	*Ibass	*	*	*Itenor	*	*	*Ialto	*	*	*Isoprn	*	*	*Iviola	*	*Ivioln	*	*Ivioln	*
*I"Organ.	*	*	*I"Bas.	*	*	*I"Tenor.	*	*	*I"Alt.	*	*	*I"Cant.	*	*	*I"Viola	*	*I"Violin 2do	*	*I"Violin 1mo	*
*I'org	*	*	*I'B	*	*	*I'T	*	*	*I'A	*	*	*I'S	*	*	*I'vla	*	*I'vl 2	*	*I'vl 1	*
*mI"Organo	*	*	*mI"Basso	*	*	*mI"Tenore	*	*	*mI"Alto	*	*	*mI"Soprano	*	*	*	*	*mI"Violino II	*	*mI"Violino I	*
*ICklav	*	*	*ICvox	*	*	*ICvox	*	*	*ICvox	*	*	*ICvox	*	*	*ICstr	*	*ICstr	*	*ICstr	*
*IGcont	*	*	*IGcoro	*	*	*IGcoro	*	*	*IGcoro	*	*	*IGcoro	*	*	*	*	*	*	*	*
*clefF4	*	*	*clefF4	*	*	*clefC4	*	*	*clefC3	*	*	*clefC1	*	*	*clefC3	*	*clefG2	*	*clefG2	*
*	*	*	*	*	*	*mclefGv2	*	*	*mclefG2	*	*	*mclefG2	*	*	*	*	*	*	*	*
*k[b-e-a-]	*	*	*k[b-e-a-]	*	*	*k[b-e-a-]	*	*	*k[b-e-a-]	*	*	*k[b-e-a-]	*	*	*k[b-e-a-]	*	*k[b-e-a-]	*	*k[b-e-a-]	*
*c:	*	*	*c:	*	*	*c:	*	*	*c:	*	*	*c:	*	*	*c:	*	*c:	*	*c:	*
*M4/4	*	*	*M4/4	*	*	*M4/4	*	*	*M4/4	*	*	*M4/4	*	*	*M4/4	*	*M4/4	*	*M4/4	*
*met(c)	*	*	*met(c)	*	*	*met(c)	*	*	*met(c)	*	*	*met(c)	*	*	*met(c)	*	*met(c)	*	*met(c)	*
*mmet(c)	*	*	*mmet(c)	*	*	*mmet(c)	*	*	*mmet(c)	*	*	*mmet(c)	*	*	*mmet(c)	*	*mmet(c)	*	*mmet(c)	*
=1	=1	=1	=1	=1	=1	=1	=1	=1	=1	=1	=1	=1	=1	=1	=1	=1	=1	=1	=1	=1
*xywh-#39:2149,3336,4759,1087	*	*	*xywh-#12:7243,5225,4766,745	*	*	*xywh-#10:2253,1662,4970,1121	*	*	*xywh-#8:2248,371,4912,1049	*	*	*xywh-#5:2104,315,5010,1093	*	*	*xywh-#28:7290,6003,4840,1084	*	*xywh-#23:7344,2046,4690,495	*	*xywh-#17:7114,7055,4597,596	*
!LO:TX:a:t=Adagio	!	!	!LO:TX:a:t=Adagio:mod=	!	!	!LO:TX:a:t=Adagio:mod=	!	!	!LO:TX:a:t=Adagio:mod=	!	!	!LO:TX:a:t=Adagio:mod=	!	!	!LO:TX:a:t=Adagio	!	!LO:TX:a:t=Adagio	!	!LO:TX:a:t=Adagio	!
!	!	!	!	!	!	!	!	!	!	!	!	!	!	!	!LO:TX:t=P:problem= oznaczenie tempa "Andan."	!	!	!	!	!
!	!	!	!	!	!	!	!	!	!	!	!	!	!	!	!LO:TX:t=P:problem= wszystkie nuty mają laski z prawej strony	!	!LO:TX:t=P:problem= wszystkie nuty mają laski z prawej strony	!	!LO:TX:t=P:problem= wszystkie nuty mają laski z prawej strony	!
*8\right	*	*	*	*	*	*	*	*	*	*	*	*	*	*	*8\right	*	*8\right	*	*8\right	*
!	!	!	!	!	!	!	!	!	!	!	!	!	!	!	!	!	!	!	!	!LO:MO:mod=p
8c\L	.	p	00r	.	.	00r	.	.	00r	.	.	00r	.	.	8c/L	p	8ee-\L	p	8gg\L	f
8C\J	.	.	.	.	.	.	.	.	.	.	.	.	.	.	8C/J	.	16r	.	16r	.
!	!	!	!	!	!	!	!	!	!	!	!	!	!	!	!	!	!LO:TX:b:t=Dolce:mod=	!	!	!
.	.	.	.	.	.	.	.	.	.	.	.	.	.	.	.	.	16cc\Jk	.	16ee-\Jk	.
!	!	!	!	!	!	!	!	!	!	!	!	!	!	!	!	!	!	!	!LO:TX:b:t=Dolce	!
*	*	*	*	*	*	*	*	*	*	*	*	*	*	*	*	*	*16\right	*	*16\right	*
!	!	!	!	!	!	!	!	!	!	!	!	!	!	!	!	!	!	!	!LO:SIC:s=(16ee-LL	!
8r	.	.	.	.	.	.	.	.	.	.	.	.	.	.	8r	.	(16cc\LL	.	16ee-\LL	.
!	!	!	!	!	!	!	!	!	!	!	!	!	!	!	!	!	!	!	!LO:SIC:s=16ff)	!
.	.	.	.	.	.	.	.	.	.	.	.	.	.	.	.	.	16dd\)	.	16ff\	.
!	!	!	!	!	!	!	!	!	!	!	!	!	!	!	!	!	!	!	!LO:SIC:s=16ff(	!
8C\	.	.	.	.	.	.	.	.	.	.	.	.	.	.	8c\	.	(16dd\	.	16ff\	.
!	!	!	!	!	!	!	!	!	!	!	!	!	!	!	!	!	!	!	!LO:SIC:s=16ggJJ)	!
.	.	.	.	.	.	.	.	.	.	.	.	.	.	.	.	.	16ee-\JJ)	.	16gg\JJ	.
!LO:TX:t=P:problem=mixed beam	!	!	!	!	!	!	!	!	!	!	!	!	!	!	!LO:TX:t=P:problem=mixed beam	!	!	!	!	!
8G\L	7 3n	.	.	.	.	.	.	.	.	.	.	.	.	.	8g\L	.	8dd\L	.	8ff\L	.
8GG/J	.	.	.	.	.	.	.	.	.	.	.	.	.	.	8G/J	.	16r	.	16r	.
.	.	.	.	.	.	.	.	.	.	.	.	.	.	.	.	.	16bn\Jk	.	16dd\Jk	.
!	!	!	!	!	!	!	!	!	!	!	!	!	!	!	!	!	!	!	!LO:SIC:s=16ddLL(	!
8r	.	.	.	.	.	.	.	.	.	.	.	.	.	.	8r	.	(16b\LL	.	16dd\LL	.
!	!	!	!	!	!	!	!	!	!	!	!	!	!	!	!	!	!	!	!LO:SIC:s=16ee-)	!
.	.	.	.	.	.	.	.	.	.	.	.	.	.	.	.	.	16cc\)	.	16ee-\	.
!	!	!	!	!	!	!	!	!	!	!	!	!	!	!	!	!	!	!	!LO:SIC:s=16ee-(	!
8GG/	.	.	.	.	.	.	.	.	.	.	.	.	.	.	8G/	.	(16cc\	.	16ee-\	.
!	!	!	!	!	!	!	!	!	!	!	!	!	!	!	!	!	!	!	!LO:SIC:s=16ffJJ)	!
.	.	.	.	.	.	.	.	.	.	.	.	.	.	.	.	.	16dd\JJ)	.	16ff\JJ	.
=2	=2	=2	=2	=2	=2	=2	=2	=2	=2	=2	=2	=2	=2	=2	=2	=2	=2	=2	=2	=2
!	!	!LO:HP:t=for	!	!	!	!	!	!	!	!	!	!	!	!	!	!LO:HP:t=for	!	!LO:HP:t=for	!	!
8C\L	6	f	.	.	.	.	.	.	.	.	.	.	.	.	8c\L	f	8cc\L	.	8ee-\L	.
8E-\	6	.	.	.	.	.	.	.	.	.	.	.	.	.	8e-\	.	16r	.	16r	.
!	!	!	!	!	!	!	!	!	!	!	!	!	!	!	!	!	!	!	!	!LO:MO:null:mod=!LO&colon;DY&colon;ed=brack
!	!	!	!	!	!	!	!	!	!	!	!	!	!	!	!	!	!	!	!	!
!	!	!	!	!	!	!	!	!	!	!	!	!	!	!	!	!	!	!LO:MO:null:mod=f	!	!LO:MO:null:mod=f
.	.	.	.	.	.	.	.	.	.	.	.	.	.	.	.	.	16g\Jk	.	16cc\Jk	.
!	!	!	!	!	!	!	!	!	!	!	!	!	!	!	!	!	!	!LO:MO:null:mod=.	!	!
8F\	-	.	.	.	.	.	.	.	.	.	.	.	.	.	8f\	.	16.a-/LL	f	16.dd-X\LL	.
*	*	*	*	*	*	*	*	*	*	*	*	*	*	*	*	*	*32\right	*	*32\right	*
.	.	.	.	.	.	.	.	.	.	.	.	.	.	.	.	.	32a-/K	.	32dd-\K	.
8E-\J	6	.	.	.	.	.	.	.	.	.	.	.	.	.	8e-\J	.	16.g/	.	16.cc\	.
.	.	.	.	.	.	.	.	.	.	.	.	.	.	.	.	.	32g/JJk	.	32cc\JJk	.
8D\L	6|	.	.	.	.	.	.	.	.	.	.	.	.	.	8d\L	.	16.f/LL	.	16.bn\LL	.
.	.	.	.	.	.	.	.	.	.	.	.	.	.	.	.	.	32f/K	.	32b\K	.
8E-\	6_	.	.	.	.	.	.	.	.	.	.	.	.	.	8e-\	.	16.g/	.	16.cc\	.
.	.	.	.	.	.	.	.	.	.	.	.	.	.	.	.	.	32g/JJk	.	32cc\JJk	.
8F\	.	.	.	.	.	.	.	.	.	.	.	.	.	.	8f\	.	16.a-/LL	.	16.dd-\LL	.
.	.	.	.	.	.	.	.	.	.	.	.	.	.	.	.	.	32a-/K	.	32dd-\K	.
8E-\J	.	.	.	.	.	.	.	.	.	.	.	.	.	.	8e-\J	.	16.g/	.	16.cc\	.
.	x	.	.	.	.	.	.	.	.	.	.	.	.	.	.	.	32g/JJk	.	32cc\JJk	.
=3	=3	=3	=3	=3	=3	=3	=3	=3	=3	=3	=3	=3	=3	=3	=3	=3	=3	=3	=3	=3
*16\right	*	*	*	*	*	*	*	*	*	*	*	*	*	*	*	*	*	*	*	*
16r	.	.	.	.	.	.	.	.	.	.	.	.	.	.	8c\L	.	8.an/L	.	8.ff#X\L	.
16E-\LL	2#	.	.	.	.	.	.	.	.	.	.	.	.	.	.	.	.	.	.	.
16D\	.	.	.	.	.	.	.	.	.	.	.	.	.	.	8c\	.	.	.	.	.
16C\JJ	.	.	.	.	.	.	.	.	.	.	.	.	.	.	.	.	16a/Jk	.	16ff#\Jk	.
!	!	!	!	!	!	!	!	!	!	!	!	!	!	!	!	!	!	!	!LO:TX:t=P:problem=mixed beam	!
8BBn/L	6	.	.	.	.	.	.	.	.	.	.	.	.	.	8d\	.	16a/LL	.	16ff#\LL	.
.	.	.	.	.	.	.	.	.	.	.	.	.	.	.	.	.	16g/J	.	16gg\J	.
8BB/J	.	.	.	.	.	.	.	.	.	.	.	.	.	.	8d\J	.	8g/J	.	8g/J	.
*	*	*	*	*	*	*	*	*	*	*	*	*	*	*	*	*	*	*	*xywh-#17:7055,7467,4901,858	*
!	!	!	!	!	!	!	!	!	!	!	!	!	!	!	!	!	!	!	!LO:LB:g=original	!
*	*	*	*	*	*	*	*	*	*	*	*	*	*	*	*tremolo	*	*	*	*	*
16r	.	.	.	.	.	.	.	.	.	.	.	.	.	.	8G/L	.	8.dd\L	.	8.ffn\L	.
16BB/LL	6 5	.	.	.	.	.	.	.	.	.	.	.	.	.	.	.	.	.	.	.
16AAn/	.	.	.	.	.	.	.	.	.	.	.	.	.	.	8G/	.	.	.	.	.
16GG/JJ	.	.	.	.	.	.	.	.	.	.	.	.	.	.	.	.	16dd\Jk	.	16ff\Jk	.
!	!	!	!	!	!	!	!	!	!	!	!	!	!	!	!	!	!LO:SIC:s=(16ddLL	!	!	!
8C/L	.	.	.	.	.	.	.	.	.	.	.	.	.	.	8G/	.	16dd\LL	.	(16ff\LL	.
.	.	.	.	.	.	.	.	.	.	.	.	.	.	.	.	.	16cc\	.	16ee-\	.
8CC/J	.	.	.	.	.	.	.	.	.	.	.	.	.	.	8G/J	.	16bn\	.	16dd\	.
!	!	!	!	!	!	!	!	!	!	!	!	!	!	!	!	!	!LO:SIC:s=16ccJJ)	!	!	!
.	.	.	.	.	.	.	.	.	.	.	.	.	.	.	.	.	16cc\JJ	.	16cc\JJ)	.
*	*	*	*	*	*	*	*	*	*	*	*	*	*	*	*Xtremolo	*	*	*	*	*
=4	=4	=4	=4	=4	=4	=4	=4	=4	=4	=4	=4	=4	=4	=4	=4	=4	=4	=4	=4	=4
*xywh-#39:2190,4174,4646,683	*	*	*	*	*	*	*	*	*	*	*	*	*	*	*	*	*xywh-#23:7344,2446,4690,495	*	*	*
!LO:LB:g=original	!	!	!	!	!	!	!	!	!	!	!	!	!	!	!	!	!LO:LB:g=original	!	!	!
8C\L	.	.	.	.	.	.	.	.	.	.	.	.	.	.	8c\L	.	16cc\LL	.	16cc\LL	.
.	.	.	.	.	.	.	.	.	.	.	.	.	.	.	.	.	16ccc\JJ	.	16ccc\JJ	.
8E-\	6_	.	.	.	.	.	.	.	.	.	.	.	.	.	8g\	.	16r	.	16r	.
.	.	.	.	.	.	.	.	.	.	.	.	.	.	.	.	.	16cc\	.	16cc\	.
8F\	.	.	.	.	.	.	.	.	.	.	.	.	.	.	8a-\	.	16dd\KL	.	16dd\KL	.
.	.	.	.	.	.	.	.	.	.	.	.	.	.	.	.	.	8cc\	.	8cc\	.
8G\J	3n	.	.	.	.	.	.	.	.	.	.	.	.	.	8f\J	.	.	.	.	.
.	.	.	.	.	.	.	.	.	.	.	.	.	.	.	.	.	16bn\Jk	.	16bn\Jk	.
8A-\L	5	.	.	.	.	.	.	.	.	.	.	.	.	.	8e-\L	.	16cc\LL	.	16cc\LL	.
.	.	.	.	.	.	.	.	.	.	.	.	.	.	.	.	.	16ccc\JJ	.	16ccc\JJ	.
8E-\	6	.	.	.	.	.	.	.	.	.	.	.	.	.	8g\	.	16r	.	16r	.
.	.	.	.	.	.	.	.	.	.	.	.	.	.	.	.	.	16cc\	.	16cc\	.
8F\	6	.	.	.	.	.	.	.	.	.	.	.	.	.	8a-\	.	16dd\KL	.	16dd\KL	.
.	.	.	.	.	.	.	.	.	.	.	.	.	.	.	.	.	8cc\	.	8cc\	.
8G\J	7	.	.	.	.	.	.	.	.	.	.	.	.	.	8f\J	.	.	.	.	.
.	.	.	.	.	.	.	.	.	.	.	.	.	.	.	.	.	16bn\Jk	.	16bn\Jk	.
=5	=5	=5	=5	=5	=5	=5	=5	=5	=5	=5	=5	=5	=5	=5	=5	=5	=5	=5	=5	=5
!LO:TX:t=P:problem=mixed beam	!	!	!	!	!	!	!	!	!	!	!	!	!	!	!LO:TX:t=P:problem=mixed beam	!	!	!	!	!
8A-\L	6	.	00r	.	.	1r	.	.	00r	.	.	1r	.	.	8e-\L	.	8cc\L	.	16cc\LL	.
.	.	.	.	.	.	.	.	.	.	.	.	.	.	.	.	.	.	.	16ccc\	.
8F\	.	.	.	.	.	.	.	.	.	.	.	.	.	.	8f\	.	8cc\	.	16aa-\	.
.	.	.	.	.	.	.	.	.	.	.	.	.	.	.	.	.	.	.	16ff\JJ	.
8G\	6 4	.	.	.	.	.	.	.	.	.	.	.	.	.	8g\	.	8cc\	.	8ee-\L	.
8GG/J	5 3n	.	.	.	.	.	.	.	.	.	.	.	.	.	8G/J	.	8bn\J	.	8ddW\	.
*	*	*	*	*	*	*	*	*	*	*	*	*	*	*	*4\right	*	*	*	*	*
4C/	.	.	.	.	.	.	.	.	.	.	.	.	.	.	4c\	.	8cc\L	.	8cc\	.
.	.	.	.	.	.	.	.	.	.	.	.	.	.	.	.	.	8g\J	.	8g\J	.
!	!	!	!	!	!	!	!	!	!	!	!	!	!	!	!	!	!	!	!LO:TX:b:t=Verte Cito:mod=	!
4r	.	.	.	.	.	.	.	.	.	.	.	.	.	.	4r	.	4c/	.	4c/	.
=6	=6	=6	=6	=6	=6	=6	=6	=6	=6	=6	=6	=6	=6	=6	=6	=6	=6	=6	=6	=6
*	*	*	*	*	*	*	*	*	*	*	*	*	*	*	*	*	*	*	*xywh-#18:2039,734,4841,680	*
*	*	*	*	*	*	*	*	*	*	*	*	*8\right	*	*	*	*	*	*	*	*
!	!	!	!	!	!	!	!	!	!	!	!	!	!	!	!	!	!	!	!LO:PB:g=original	!
!	!	!	!	!	!	!LO:TX:t=P:problem= wszystkie nuty mają laski z prawej strony	!	!	!	!	!	!LO:TX:t=P:problem= wszystkie nuty mają laski z prawej strony	!	!	!	!	!	!	!	!
!	!	!	!	!	!	!LO:TX:a:t=Solo	!	!	!	!	!	!LO:TX:a:t=Solo	!	!	!LO:TX:t=P:problem=mixed beam	!	!	!	!	!
8C/L	.	p	.	.	.	8.e-\	Fac	.	.	.	.	8.gg\	Fac	.	8c\L	p	8ee-\L	p	8gg\L	p
8CC/J	.	.	.	.	.	.	.	.	.	.	.	.	.	.	8C/J	.	16r	.	16r	.
!	!	!	!	!	!	!	!	!	!	!	!	!	!	!	!	!	!LO:TX:a:t=Dolce:mod=	!	!	!
*	*	*	*	*	*	*	*	*	*	*	*	*16\right	*	*	*	*	*	*	*	*
.	.	.	.	.	.	16c\	me	.	.	.	.	16ee-\	me	.	.	.	16cc\Jk	.	16ee-\Jk	.
8r	.	.	.	.	.	16c\LL	ve-	.	.	.	.	16ee-\LL	ve-	.	8r	.	(16cc\LL	.	(16ee-\LL	.
.	.	.	.	.	.	16d\JJ	.	.	.	.	.	16ff\JJ	.	.	.	.	16dd\)	.	16ff\)	.
8C/	.	.	.	.	.	16d\LL	-re	.	.	.	.	16ff\LL	-re	.	8c\	.	(16dd\	.	(16ff\	.
.	.	.	.	.	.	16e-\JJ	.	.	.	.	.	16gg\JJ	.	.	.	.	16ee-\JJ)	.	16gg\JJ)	.
*	*	*	*	*	*	*	*	*	*	*	*	*	*	*	*xywh-#28:7247,6962,4809,645	*	*	*	*	*
!LO:TX:t=P:problem=mixed beam	!	!	!	!	!	!	!	!	!	!	!	!	!	!	!LO:TX:t=P:problem=mixed beam	!	!	!	!	!
!	!	!	!	!	!	!	!	!	!	!	!	!	!	!	!LO:LB:g=original	!	!	!	!	!
8G\L	7 3n	.	.	.	.	8.d\	te	.	.	.	.	8.ff\	te	.	8g\L	.	8dd\L	.	8ff\L	.
8GG/J	.	.	.	.	.	.	.	.	.	.	.	.	.	.	8G/J	.	16r	.	16r	.
.	.	.	.	.	.	16Bn\	cum	.	.	.	.	16dd\	cum	.	.	.	16bn\Jk	.	16dd\Jk	.
8r	.	.	.	.	.	16B\LL	fle-	.	.	.	.	16dd\LL	fle-	.	8r	.	(16b\LL	.	(16dd\LL	.
.	.	.	.	.	.	16c\JJ	.	.	.	.	.	16ee-\JJ	.	.	.	.	16cc\)	.	16ee-\)	.
8GG/	.	.	.	.	.	16c\LL	-re	.	.	.	.	16ee-\LL	-re	.	8G/	.	(16cc\	.	(16ee-\	.
.	.	.	.	.	.	16d\JJ	.	.	.	.	.	16ff\JJ	.	.	.	.	16dd\JJ)	.	16ff\JJ)	.
=7	=7	=7	=7	=7	=7	=7	=7	=7	=7	=7	=7	=7	=7	=7	=7	=7	=7	=7	=7	=7
!	!	!	!	!	!	!	!	!LO:MO:mod=!null:null	!	!	!	!	!	!	!	!	!	!	!	!
!	!	!	!	!	!	!	!	!LO:HP:t=Cres	!	!	!	!	!	!	!	!	!	!	!	!
!	!	!	!	!	!	!	!	!LO:DY:a	!	!	!	!	!	!	!	!	!	!	!	!
!	!	!	!	!	!	!	!	!LO:MO:null:mod=.	!	!	!	!	!	!	!	!	!	!	!	!
8C\L	6	.	.	.	.	1r	.	<	.	.	.	8.ee-\	fac	.	8c\L	.	8cc\L	.	8ee-\L	.
8E-\	6	.	.	.	.	.	.	.	.	.	.	.	.	.	8e-\	.	16r	.	16r	.
.	.	.	.	.	.	.	.	.	.	.	.	16cc\	me	.	.	.	16g\Jk	.	16cc\Jk	.
8F\	-	.	.	.	.	.	.	.	.	.	.	8dd-X\	ve-	.	8f\	.	16.a-/LL	.	16.dd-X\LL	.
.	.	.	.	.	.	.	.	.	.	.	.	.	.	.	.	.	32a-/K	.	32dd-\K	.
8E-\J	6	.	.	.	.	.	.	.	.	.	.	8cc\	-re	.	8e-\J	.	16.g/	.	16.cc\	.
.	.	.	.	.	.	.	.	.	.	.	.	.	.	.	.	.	32g/JJk	.	32cc\JJk	.
*	*	*	*	*	*	*	*	*	*	*	*	*	*	*	*	*	*xywh-#23:7352,2905,4581,509	*	*	*
!	!	!	!	!	!	!	!	!	!	!	!	!	!	!	!	!	!LO:LB:g=original	!	!	!
8D\L	6|	.	.	.	.	.	.	.	.	.	.	8bn\	te-	.	8d\L	.	16.f/LL	.	16.bn\LL	.
.	.	.	.	.	.	.	.	.	.	.	.	.	.	.	.	.	32f/K	.	32b\K	.
8E-\	6	.	.	.	.	.	.	.	.	.	.	8cc\	-cum	.	8e-\	.	16.g/	.	16.cc\	.
.	.	.	.	.	.	.	.	.	.	.	.	.	.	.	.	.	32g/JJk	.	32cc\JJk	.
8F\	6-	.	.	.	.	.	.	.	.	.	.	8dd-X\	fle-	.	8f\	.	16.a-/LL	.	16.dd-\LL	.
.	.	.	.	.	.	.	.	.	.	.	.	.	.	.	.	.	32a-/K	.	32dd-\K	.
8E-\J	6	.	.	.	.	.	.	.	.	.	.	8cc\	-re	.	8e-\J	.	16.g/	.	16.cc\	.
.	.	.	.	.	.	.	.	.	.	.	.	.	.	.	.	.	32g/JJk	.	32cc\JJk	.
=8	=8	=8	=8	=8	=8	=8	=8	=8	=8	=8	=8	=8	=8	=8	=8	=8	=8	=8	=8	=8
*xywh-#39:2155,4595,4783,790	*	*	*	*	*	*	*	*	*	*	*	*xywh-#5:2152,1190,4856,720	*	*	*	*	*	*	*	*
!LO:LB:g=original	!	!	!	!	!	!	!	!	!	!	!	!LO:LB:g=original	!	!	!	!	!	!	!	!
16r	.	.	.	.	.	2r	.	.	.	.	.	8.ff#X\	Cru-	.	8c\L	.	8.an/L	.	8.ff#X\L	.
16E-\LL	2#	.	.	.	.	.	.	.	.	.	.	.	.	.	.	.	.	.	.	.
16D\	.	.	.	.	.	.	.	.	.	.	.	.	.	.	8c\	.	.	.	.	.
16C\JJ	.	.	.	.	.	.	.	.	.	.	.	16ff#\	-ci-	.	.	.	16a/Jk	.	16ff#\Jk	.
!	!	!	!	!	!	!	!	!	!	!	!	!	!	!	!	!	!LO:SIC:s=(16aLL	!	!LO:TX:t=P:problem=mixed beam	!
8BBn/L	6	.	.	.	.	.	.	.	.	.	.	16ff#\LL	-fi-	.	8d\	.	16a/LL	.	(16ff#\LL	.
!	!	!	!	!	!	!	!	!	!	!	!	!	!	!	!	!	!LO:SIC:s=16gJ)	!	!	!
.	.	.	.	.	.	.	.	.	.	.	.	16gg\JJ	.	.	.	.	16g/J	.	16gg\J)	.
8BB/J	.	.	.	.	.	.	.	.	.	.	.	8g\	-xo	.	8d\J	.	8g/J	.	8g/J	.
*	*	*	*	*	*	*	*	*	*	*	*	*	*	*	*tremolo	*	*	*	*	*
16r	.	.	.	.	.	8.f\	con	.	.	.	.	2r	.	.	8G/L	.	8.dd\L	.	8.ffn\L	.
16BB/LL	6 5	.	.	.	.	.	.	.	.	.	.	.	.	.	.	.	.	.	.	.
16AAn/	.	.	.	.	.	.	.	.	.	.	.	.	.	.	8G/	.	.	.	.	.
16GG/JJ	.	.	.	.	.	16f\	do-	.	.	.	.	.	.	.	.	.	16dd\Jk	.	16ff\Jk	.
!	!	!	!	!	!	!LO:N:vis=16	!	!	!	!	!	!	!	!	!	!	!	!	!	!
8C/L	.	.	.	.	.	8f\L	-le	.	.	.	.	.	.	.	8G/	.	(16dd\LL	.	(16ff\LL	.
.	.	.	.	.	.	.	.	.	.	.	.	.	.	.	.	.	16cc\	.	16ee-\	.
!	!	!	!	!	!	!LO:N:vis=16	!	!	!	!	!	!	!	!	!	!	!	!	!	!
8CC/J	.	.	.	.	.	8e-\J	.	.	.	.	.	.	.	.	8G/J	.	16bn\	.	16dd\	.
.	.	.	.	.	.	.	.	.	.	.	.	.	.	.	.	.	16cc\JJ)	.	16cc\JJ)	.
*	*	*	*	*	*	*	*	*	*	*	*	*	*	*	*Xtremolo	*	*	*	*	*
=9	=9	=9	=9	=9	=9	=9	=9	=9	=9	=9	=9	=9	=9	=9	=9	=9	=9	=9	=9	=9
!	!	!	!	!	!	!	!	!	!	!	!	!LO:TX:t=2	!	!	!	!	!	!	!	!
8E-\L	6	.	0r	.	.	8.g\	do-	.	0r	.	.	0r	.	.	8e-\L	.	16r	.	16r	.
.	.	.	.	.	.	.	.	.	.	.	.	.	.	.	.	.	16cc\LL	.	16gg\LL	.
8E-\	.	.	.	.	.	.	.	.	.	.	.	.	.	.	8e-\	.	16cc\	.	16gg\	.
.	.	.	.	.	.	16e-\	-nec	.	.	.	.	.	.	.	.	.	16cc\JJ	.	16ee-\JJ	.
8E-\	.	.	.	.	.	8c\	e-	.	.	.	.	.	.	.	8e-\	.	16r	.	16r	.
.	.	.	.	.	.	.	.	.	.	.	.	.	.	.	.	.	16g/LL	.	16cc\LL	.
8En\J	5	.	.	.	.	8B-\	-go	.	.	.	.	.	.	.	8en\J	.	16g/	.	16cc\	.
.	.	.	.	.	.	.	.	.	.	.	.	.	.	.	.	.	16g/JJ	.	16b-\JJ	.
*	*	*	*	*	*	*xywh-#10:2225,2525,4918,737	*	*	*	*	*	*	*	*	*	*	*	*	*xywh-#18:2039,1312,4841,555	*
!	!	!	!	!	!	!LO:LB:g=original	!	!	!	!	!	!	!	!	!	!	!	!	!LO:LB:g=original	!
8F\L	4	.	.	.	.	8.B-\	vi-	.	.	.	.	.	.	.	8c\L	.	16g/LL	.	16b-\LL	.
.	3	.	.	.	.	.	.	.	.	.	.	.	.	.	.	.	16f/	.	16a-\	.
8F\J	.	.	.	.	.	.	.	.	.	.	.	.	.	.	8c\J	.	16en/	.	16g\	.
.	.	.	.	.	.	16A-\	-xe-	.	.	.	.	.	.	.	.	.	16f/JJ	.	16a-\JJ	.
*	*	*	*	*	*	*	*	*	*	*	*	*	*	*	*16\right	*	*	*	*4\right	*
16F\LL	.	.	.	.	.	4A-\	-o	.	.	.	.	.	.	.	16a-\LL	.	4f/	.	4a-\	.
16G\	.	.	.	.	.	.	.	.	.	.	.	.	.	.	16b-\	.	.	.	.	.
16F\	.	.	.	.	.	.	.	.	.	.	.	.	.	.	16a-\	.	.	.	.	.
!LO:SIC:v:s=16E-JJ	!	!	!	!	!	!	!	!	!	!	!	!	!	!	!	!	!	!	!	!
16E\JJ	.	.	.	.	.	.	.	.	.	.	.	.	.	.	16g\JJ	.	.	.	.	.
=10	=10	=10	=10	=10	=10	=10	=10	=10	=10	=10	=10	=10	=10	=10	=10	=10	=10	=10	=10	=10
*	*	*	*	*	*	*	*ij	*	*	*	*	*	*	*	*	*	*	*	*	*
8D\L	6	.	.	.	.	8.f\	do-	.	.	.	.	.	.	.	8f\L	.	16r	.	16r	.
.	.	.	.	.	.	.	.	.	.	.	.	.	.	.	.	.	16b-\LL	.	16ff\LL	.
8D\	.	.	.	.	.	.	.	.	.	.	.	.	.	.	8d\	.	16b-\	.	16ff\	.
.	.	.	.	.	.	16d\	-nec	.	.	.	.	.	.	.	.	.	16b-\JJ	.	16dd\JJ	.
8D\	.	.	.	.	.	8B-\	e-	.	.	.	.	.	.	.	8d\	.	16r	.	16r	.
.	.	.	.	.	.	.	.	.	.	.	.	.	.	.	.	.	16f\LL	.	16b-\LL	.
8D\J	5	.	.	.	.	8A-\	-go	.	.	.	.	.	.	.	8d\J	.	16f\	.	16b-\	.
.	.	.	.	.	.	.	.	.	.	.	.	.	.	.	.	.	16f\JJ	.	16a-\JJ	.
8E-\L	4	.	.	.	.	8.A-\	vi-	.	.	.	.	.	.	.	8B-\L	.	16f/LL	.	(16a-/LL	.
.	.	.	.	.	.	.	.	.	.	.	.	.	.	.	.	.	16e-/	.	16g/	.
8E-\J	3	.	.	.	.	.	.	.	.	.	.	.	.	.	8B-\J	.	16d/	.	16f/)	.
.	.	.	.	.	.	16G\	-xe-	.	.	.	.	.	.	.	.	.	16e-/JJ	.	16g/JJ	.
16E-\LL	.	.	.	.	.	4G\	-o	.	.	.	.	.	.	.	16B-\LL	.	4e-/	.	4g/	.
*	*	*	*	*	*	*	*Xij	*	*	*	*	*	*	*	*	*	*	*	*	*
16A-\	.	.	.	.	.	.	.	.	.	.	.	.	.	.	16c\	.	.	.	.	.
16G\	.	.	.	.	.	.	.	.	.	.	.	.	.	.	16B-\	.	.	.	.	.
16F\JJ	.	.	.	.	.	.	.	.	.	.	.	.	.	.	16A-\JJ	.	.	.	.	.
=11	=11	=11	=11	=11	=11	=11	=11	=11	=11	=11	=11	=11	=11	=11	=11	=11	=11	=11	=11	=11
*xywh-#39:2119,5190,4795,653	*	*	*	*	*	*	*	*	*	*	*	*	*	*	*	*	*xywh-#23:7308,3422,4800,539	*	*	*
!	!	!LO:MO:mod=!null:null	!	!	!LO:HP:t=for	!	!	!LO:HP:t=for	!	!	!LO:HP:t=for	!	!	!	!LO:TX:t=P:problem=mixed beam	!	!LO:LB:g=original	!	!	!
!LO:LB:g=original	!	!LO:DY:t=fo	!LO:TX:t=P:problem= wszystkie nuty mają laski z prawej strony	!	!	!	!	!	!LO:TX:t=P:problem= wszystkie nuty mają laski z prawej strony	!	!	!	!	!	!	!	!	!	!	!
*	*	*	*4\right	*	*	*4\right	*	*	*4\right	*	*	*4\right	*	*	*	*	*	*	*	*
!	!	!	!	!	!	!	!	!	!	!	!	!	!	!LO:MO:null:mod=!LO&colon;DY&colon;ed=brack	!	!	!	!	!	!
!	!	!	!	!	!	!	!	!	!	!	!	!	!	!	!	!	!	!	!	!
!	!	!	!	!	!	!	!LO:MO:mod=Fac	!	!	!	!	!	!LO:MO:mod=Fac	!LO:MO:null:mod=f	!	!	!	!	!	!
8E-\L	.	f	4.E-\	Fac	f	4.B-\	fac	f	4.g\	Fac	f	4.ee-\	fac	.	8G/L	f	16b-\LL	f	16gg\LL	f
.	.	.	.	.	.	.	.	.	.	.	.	.	.	.	.	.	16g\JJ	.	16ee-\JJ	.
8E-\	.	.	.	.	.	.	.	.	.	.	.	.	.	.	8e-\	.	16r	.	16r	.
.	.	.	.	.	.	.	.	.	.	.	.	.	.	.	.	.	16g\	.	16ee-\	.
8E-\	.	.	.	.	.	.	.	.	.	.	.	.	.	.	8e-\	.	16g'\LL	.	16ee-'\LL	.
.	.	.	.	.	.	.	.	.	.	.	.	.	.	.	.	.	16g'\	.	16ee-'\	.
*	*	*	*8\right	*	*	*	*	*	*16\right	*	*	*	*	*	*	*	*	*	*	*
8E-\J	.	.	8E-\	me	.	8B-\	me	.	16b-\LL	me	.	16gg\LL	me	.	8e-\J	.	(16b-\	.	(16gg\	.
.	.	.	.	.	.	.	.	.	16g\JJ	.	.	16ee-\JJ	.	.	.	.	16g\JJ)	.	16ee-\JJ)	.
*	*	*	*	*	*	*	*	*	*	*	*	*	*	*	*2\right	*	*	*	*	*
*	*	*	*	*	*	*	*	*	*	*	*	*	*	*	*tremolo	*	*tremolo	*	*	*
8F\L	7	.	8F\	ve-	.	8B-\	ve-	.	16g\LL	ve-	.	16ee-\LL	ve-	.	8f\L	.	16a-\LL	.	16ee-\LL	.
.	6	.	.	.	.	.	.	.	16f\JJ	.	.	16dd\JJ	.	.	.	.	16a-\	.	16dd\	.
*	*	*	*	*	*	*	*	*	*8\right	*	*	*	*	*	*	*	*	*	*	*
8F\	.	.	8F\	-re	.	8B-\	-re	.	8f\	-re	.	8dd\	-re	.	8f\	.	16a-\	.	16dd\	.
.	.	.	.	.	.	.	.	.	.	.	.	.	.	.	.	.	16a-\JJ	.	16dd\JJ	.
*	*	*	*	*	*	*	*	*	*	*	*	*	*	*	*	*	*	*	*tremolo	*
8F\	.	.	4r	.	.	4r	.	.	4r	.	.	4r	.	.	8f\	.	16a-\LL	.	16dd\LL	.
.	.	.	.	.	.	.	.	.	.	.	.	.	.	.	.	.	16a-\	.	16dd\	.
8F\J	.	.	.	.	.	.	.	.	.	.	.	.	.	.	8f\J	.	16a-\	.	16dd\	.
.	.	.	.	.	.	.	.	.	.	.	.	.	.	.	.	.	16a-\JJ	.	16dd\JJ	.
=12	=12	=12	=12	=12	=12	=12	=12	=12	=12	=12	=12	=12	=12	=12	=12	=12	=12	=12	=12	=12
*	*	*	*	*	*	*	*	*	*	*	*	*	*	*	*xywh-#28:7209,7445,4928,764	*	*	*	*	*
!LO:SIC:v:t=b.c.= 6	!LO:MO:mod=6	!	!	!	!	!	!	!	!	!	!	!	!	!	!LO:LB:g=original	!	!	!	!	!
8D\L	7	.	4.D\	te-	.	(4c\	te-	.	4.a-\	te-	.	4.ff\	te-	.	8d\L	.	16cc\LL	.	16aa-\LL	.
.	.	.	.	.	.	.	.	.	.	.	.	.	.	.	.	.	16a-\JJ	.	16ff\JJ	.
8D\	.	.	.	.	.	.	.	.	.	.	.	.	.	.	8d\	.	16r	.	16r	.
.	.	.	.	.	.	.	.	.	.	.	.	.	.	.	.	.	16a-\	.	16ff\	.
8D\	5	.	.	.	.	8B-\)	.	.	.	.	.	.	.	.	8d\	.	16a-'\LL	.	16ff'\LL	.
.	.	.	.	.	.	.	.	.	.	.	.	.	.	.	.	.	16a-'\	.	16ff'\	.
8D\J	.	.	8D\	-cum	.	8B-\	-cum	.	16cc\LL	-cum	.	16aa-\LL	-cum	.	8d\J	.	(16cc\	.	(16aa-\	.
.	.	.	.	.	.	.	.	.	16a-\JJ	.	.	16ff\JJ	.	.	.	.	16a-\JJ)	.	16ff\JJ)	.
8E-\L	4	.	8E-\	fle-	.	8B-\	fle-	.	16a-\LL	fle-	.	16ff\LL	fle-	.	8B-\L	.	(16a-/LL	.	(16ff\LL	.
.	.	.	.	.	.	.	.	.	16g\JJ	.	.	16ee-\JJ	.	.	.	.	16g/)	.	16ee-\)	.
8E-\	3	.	8E-\	-re	.	8B-\	-re	.	8g\	-re	.	8ee-\	-re	.	8B-\	.	16g'/	.	16ee-'\	.
.	.	.	.	.	.	.	.	.	.	.	.	.	.	.	.	.	16g'/JJ	.	16ee-'\JJ	.
8E-\	.	.	4r	.	.	4r	.	.	4r	.	.	4r	.	.	8B-\	.	16g/LL	.	16ee-\LL	.
.	.	.	.	.	.	.	.	.	.	.	.	.	.	.	.	.	16g/	.	16ee-\	.
8E-\J	.	.	.	.	.	.	.	.	.	.	.	.	.	.	8B-\J	.	16g/	.	16ee-\	.
.	.	.	.	.	.	.	.	.	.	.	.	.	.	.	.	.	16g/JJ	.	16ee-\JJ	.
*	*	*	*	*	*	*	*	*	*	*	*	*	*	*	*	*	*Xtremolo	*	*Xtremolo	*
=13	=13	=13	=13	=13	=13	=13	=13	=13	=13	=13	=13	=13	=13	=13	=13	=13	=13	=13	=13	=13
8E-\L	.	.	8.E-\	Cru-	.	8.e-\	Cru-	.	8.b-\	Cru-	.	8.gg\	Cru-	.	8B-\L	.	16gg\LL	.	16bb-\LL	.
.	.	.	.	.	.	.	.	.	.	.	.	.	.	.	.	.	16ee-\JJ	.	16gg\JJ	.
8E-\	.	.	.	.	.	.	.	.	.	.	.	.	.	.	8B-\	.	16r	.	16r	.
*	*	*	*16\right	*	*	*	*	*	*	*	*	*	*	*	*	*	*	*	*	*
.	.	.	16E-\	-ci-	.	16e-\	-ci-	.	16b-\	-ci-	.	16gg\	-ci-	.	.	.	16ee-\	.	16gg\	.
*	*	*	*	*	*	*	*	*	*	*	*	*	*	*	*	*	*	*	*xywh-#18:2015,1700,4841,549	*
!	!	!	!	!	!	!	!	!	!	!	!	!	!	!	!	!	!LO:SIC:s=16ee-'LL	!	!LO:LB:g=original	!
8E-\	.	.	8E-\	-fi-	.	8e-\	-fi-	.	8b-\	-fi-	.	8gg\	-fi-	.	8B-\	.	16ee-\LL	.	16gg'\LL	.
!	!	!	!	!	!	!	!	!	!	!	!	!	!	!	!	!	!LO:SIC:s=16ee-'	!	!	!
.	.	.	.	.	.	.	.	.	.	.	.	.	.	.	.	.	16ee-\	.	16gg'\	.
!	!	!	!	!	!	!	!	!	!	!	!	!	!	!	!	!	!LO:SIC:s=(16ee-	!	!	!
8B-\J	.	.	8B-\	-xo	.	16e-\LL	-xo	.	8b-\	-xo	.	16gg\LL	-xo	.	8B-\J	.	16ee-\	.	16gg\	.
.	.	.	.	.	.	16d\JJ	.	.	.	.	.	16ff\JJ	.	.	.	.	16dd\JJ	.	16ff\JJ	.
.	.	.	.	.	.	.	.	.	.	.	.	8qqff/	.	.	.	.	.	.	.	.
*	*	*	*xywh-#12:7255,5697,4889,716	*	*	*xywh-#10:2270,3074,4873,703	*	*	*	*	*	*	*	*	*	*	*	*	*	*
!	!	!	!LO:LB:g=original	!	!	!LO:LB:g=original	!	!	!	!	!	!	!	!	!	!	!	!	!	!
8c\L	4	.	8.c\	con	.	8.c\	con	.	8.g\	con	.	8.ee-\	con	.	8G/L	.	16dd\LL	.	16ff\LL	.
.	3	.	.	.	.	.	.	.	.	.	.	.	.	.	.	.	16cc\JJ	.	16ee-\JJ	.
8c\	.	.	.	.	.	.	.	.	.	.	.	.	.	.	8G/	.	16r	.	16r	.
.	.	.	16c\	do-	.	16c\	do-	.	16g\	do-	.	16ee-\	do-	.	.	.	16cc\	.	16ee-\	.
*	*	*	*	*	*	*	*	*	*	*	*	*xywh-#5:2190,1756,4813,619	*	*	*	*	*	*	*	*
!	!	!	!	!	!	!	!	!	!	!	!	!LO:LB:g=original	!	!	!	!	!	!	!	!
8c\	.	.	8c\	-le-	.	8c\	-le-	.	8g\	-le-	.	8ee-\	-le-	.	8G/	.	16cc\LL	.	16ee-'\LL	.
.	.	.	.	.	.	.	.	.	.	.	.	.	.	.	.	.	16cc\	.	16ee-'\	.
8G\J	.	.	8A-\	-re	.	16c\LL	-re	.	8g\	-re	.	16ee-\LL	-re	.	8G/J	.	16cc\	.	(16ee-\	.
.	.	.	.	.	.	16B-\JJ	.	.	.	.	.	16dd\JJ	.	.	.	.	16b-\JJ	.	16dd\JJ)	.
=14	=14	=14	=14	=14	=14	=14	=14	=14	=14	=14	=14	=14	=14	=14	=14	=14	=14	=14	=14	=14
*	*	*	*	*	*	*	*	*	*xywh-#8:2227,1310,4891,662	*	*	*	*	*	*	*	*	*	*	*
!	!	!	!	!	!	!	!	!	!LO:LB:g=original	!	!	!	!	!	!LO:TX:t=P:problem=mixed beam	!	!	!	!	!
8A-\L	4	.	8.A-\	do-	.	8.e-\	do-	.	8.a-\	do-	.	8.cc\	do-	.	8A-/L	.	16b-/LL	.	16dd\LL	.
.	.	.	.	.	.	.	.	.	.	.	.	.	.	.	.	.	16a-/JJ	.	16cc\JJ	.
8A-\	3	.	.	.	.	.	.	.	.	.	.	.	.	.	8e-\	.	16r	.	16r	.
.	.	.	16A-\	-nec	.	16e-\	-nec	.	16a-\	-nec	.	16cc\	-nec	.	.	.	16a-/	.	16cc\	.
*	*	*	*	*	*	*	*	*	*	*	*	*	*	*	*	*	*xywh-#23:7344,3903,4683,400	*	*	*
!	!	!	!	!	!	!	!	!	!	!	!	!	!	!	!	!	!LO:LB:g=original	!	!	!
8A-\	.	.	8A-\	e-	.	8e-\	e-	.	8a-\	e-	.	8cc\	e-	.	8e-\	.	16a-'/LL	.	16cc'\LL	.
.	.	.	.	.	.	.	.	.	.	.	.	.	.	.	.	.	16a-'/	.	16cc'\	.
8E-\J	.	.	8E-\	-go	.	8e-\	-go	.	16a-\LL	-go	.	16cc\LL	-go	.	8e-\J	.	(16a-/	.	(16cc\	.
.	.	.	.	.	.	.	.	.	16g\JJ	.	.	16b-\JJ	.	.	.	.	16g/JJ)	.	16b-\JJ)	.
!LO:TX:t=P:problem=mixed beam	!	!	!	!	!	!	!	!	!	!	!	!	!	!	!	!	!	!	!	!
.	.	.	.	.	.	.	.	.	8qqg/	.	.	8qqb-/	.	.	.	.	.	.	.	.
8F\L	.	.	8F\	vi-	.	8c\	vi-	.	8.f\	vi-	.	8.a-\	vi-	.	8c/L	.	(16g/LL	.	(16b-\LL	.
.	.	.	.	.	.	.	.	.	.	.	.	.	.	.	.	.	16f/)	.	16a-\)	.
8D\	.	.	8D\	-xe-	.	8B-\	-xe-	.	.	.	.	.	.	.	8B-/	.	(16f/	.	(16a-\	.
.	.	.	.	.	.	.	.	.	16f\	-xe-	.	16a-\	-xe-	.	.	.	16a-/JJ)	.	16ff\JJ)	.
.	.	.	.	.	.	.	.	.	8qqf/	.	.	8qqa-/	.	.	.	.	.	.	.	.
!	!	!	!	!	!	!	!	!	!	!	!	!	!	!	!	!	!LO:SIC:s=(16fLL	!	!	!
8E-\	6 5	.	4E-\	-ro	.	4B-\	-ro	.	4e-\	-ro	.	4g\	-ro	.	8B-/	.	16f/LL	.	(16a-\LL	.
!	!	!	!	!	!	!	!	!	!	!	!	!	!	!	!	!	!LO:SIC:s=16e-)	!	!	!
.	.	.	.	.	.	.	.	.	.	.	.	.	.	.	.	.	16e-/	.	16g\)	.
!	!	!	!	!	!	!	!	!	!	!	!	!	!	!	!	!	!LO:SIC:s=16e-(	!	!	!
8EE-/J	.	.	.	.	.	.	.	.	.	.	.	.	.	.	8B-/J	.	16e-/	.	(16g\	.
!	!	!	!	!	!	!	!	!	!	!	!	!	!	!	!	!	!LO:SIC:s=16gJJ)	!	!	!
.	.	.	.	.	.	.	.	.	.	.	.	.	.	.	.	.	16g/JJ	.	16ee-\JJ)	.
=15	=15	=15	=15	=15	=15	=15	=15	=15	=15	=15	=15	=15	=15	=15	=15	=15	=15	=15	=15	=15
*xywh-#39:2190,5600,4616,695	*	*	*	*	*	*	*	*	*	*	*	*	*	*	*	*	*	*	*	*
!	!	!LO:MO:null:mod=!LO&colon;DY&colon;ed=brack	!	!	!	!	!	!	!	!	!	!	!	!	!	!	!	!	!	!
!	!	!	!	!	!	!	!	!	!	!	!	!	!	!	!	!	!	!	!	!
!LO:LB:g=original	!	!LO:MO:null:mod=p	!	!	!	!	!	!	!	!	!	!	!	!	!	!	!	!	!	!
8A-\	.	.	2r	.	.	2r	.	.	8cc\	do-	.	8ee-\	do-	.	8A-/	p	16r	.	16r	.
!	!	!	!	!	!	!	!	!	!	!	!	!	!	!	!	!	!	!LO:MO:null:mod=!LO&colon;DY&colon;ed=brack	!	!LO:MO:null:mod=!LO&colon;DY&colon;ed=brack
!	!	!	!	!	!	!	!	!	!	!	!	!	!	!	!	!	!	!	!	!
!	!	!	!	!	!	!	!	!	!	!	!	!	!	!	!	!	!	!LO:MO:null:mod=p	!	!LO:MO:null:mod=p
.	.	.	.	.	.	.	.	.	.	.	.	.	.	.	.	.	(16cc\LL	.	(16ee-\LL	.
8r	.	.	.	.	.	.	.	.	16b-\LL	-nec	.	16dd\LL	-nec	.	8r	.	16b-\	.	16dd\	.
.	.	.	.	.	.	.	.	.	16a-\JJ	.	.	16cc\JJ	.	.	.	.	16a-\JJ)	.	16cc\JJ)	.
8A-\	.	.	.	.	.	.	.	.	8a-\	e-	.	8cc\	e-	.	8A-/	.	16r	.	16r	.
.	.	.	.	.	.	.	.	.	.	.	.	.	.	.	.	.	(16a-/LL	.	(16cc\LL	.
8r	.	.	.	.	.	.	.	.	16g\LL	-go	.	16b-\LL	-go	.	8r	.	16g/)	.	16b-\	.
.	.	.	.	.	.	.	.	.	16f\JJ	.	.	16a-\JJ	.	.	.	.	16f/JJ	.	16a-\JJ)	.
!	!	!	!	!	!	!	!	!	!	!	!	!	!	!	!	!LO:HP:t=for	!	!LO:HP:t=for	!	!
*4\right	*	*	*	*	*	*	*	*	*	*	*	*	*	*	*	*	*	*	*	*
!	!	!LO:MO:null:mod=!LO&colon;DY&colon;ed=brack	!	!	!	!	!	!	!	!	!	!	!	!	!	!	!	!	!	!LO:MO:null:mod=!LO&colon;DY&colon;ed=brack
!	!	!	!	!	!	!	!	!	!	!	!	!	!	!	!	!	!	!	!	!
!	!	!LO:MO:null:mod=f	!	!	!	!	!	!	!	!	!	!	!	!	!	!	!	!	!	!LO:MO:null:mod=f
4B-\	6 4	.	4B-\	vi-	.	[4B-\	vi-	.	4e-\	vi-	.	4g/	vi-	.	8B-'/L	f	16e-/LL	f	16g\LL	.
.	.	.	.	.	.	.	.	.	.	.	.	.	.	.	.	.	16g/	.	16ee-\	.
.	.	.	.	.	.	.	.	.	.	.	.	.	.	.	8B-'/	.	16e-/	.	16g\	.
.	.	.	.	.	.	.	.	.	.	.	.	.	.	.	.	.	16g/JJ	.	16ee-\JJ	.
4BB-/	5 3	.	8.BB-/	.	.	8.B-\]	.	.	8.d\	.	.	8.f/	.	.	8B-'/	.	16d/LL	.	16f\LL	.
.	.	.	.	.	.	.	.	.	.	.	.	.	.	.	.	.	16f/	.	16dd\	.
.	.	.	.	.	.	.	.	.	.	.	.	.	.	.	8B-'/J	.	16d/	.	16f\	.
.	.	.	16BB-/	-xe-	.	16B-\k	-xe-	.	16d\	-xe-	.	16f/	-xe-	.	.	.	16f/JJ	.	16dd\JJ	.
=16	=16	=16	=16	=16	=16	=16	=16	=16	=16	=16	=16	=16	=16	=16	=16	=16	=16	=16	=16	=16
!LO:TX:t=P:problem=mixed beam	!	!	!	!	!	!	!	!	!	!	!	!	!	!	!LO:TX:t=P:problem=mixed beam	!	!LO:TX:t=P:problem=mixed beam	!	!	!
8E-\L	.	.	4E-\	-ro	.	4B-\	-ro	.	4e-\	-ro	.	4g/	-ro	.	8e-\L	.	16e-/LL	.	(16ee-\LL	.
.	.	.	.	.	.	.	.	.	.	.	.	.	.	.	.	.	16ee-\	.	16gg\)	.
8EE-/J	.	.	.	.	.	.	.	.	.	.	.	.	.	.	8E-/J	.	16ee-\	.	16gg'\	.
.	.	.	.	.	.	.	.	.	.	.	.	.	.	.	.	.	16ee-\JJ	.	16gg'\JJ	.
*	*	*	*	*	*	*	*	*	*	*	*	*	*	*	*	*	*	*	*xywh-#18:2069,2065,4871,608	*
!	!	!	!	!	!	!	!	!	!	!	!	!	!	!	!	!	!LO:SIC:s=(16ee-LL	!	!LO:LB:g=original	!
8r	.	.	4r	.	.	4r	.	.	4r	.	.	4r	.	.	8r	.	16ee-\LL	.	(16gg\LL	.
!	!	!	!	!	!	!	!	!	!	!	!	!	!	!	!	!	!LO:SIC:s=32ffL	!	!	!
.	.	.	.	.	.	.	.	.	.	.	.	.	.	.	.	.	(32ff\L	.	32aa-\L	.
!	!	!	!	!	!	!	!	!	!	!	!	!	!	!	!	!	!LO:SIC:s=32ggJ	!	!	!
.	.	.	.	.	.	.	.	.	.	.	.	.	.	.	.	.	32gg\J)	.	32bb-\J	.
!	!	!LO:MO:null:mod=.	!	!	!	!	!	!	!	!	!	!	!	!	!	!	!LO:SIC:s=16ff)	!	!	!
8E-\	.	p	.	.	.	.	.	.	.	.	.	.	.	.	8e-\	.	16ff\	.	16aa-\)	.
.	.	.	.	.	.	.	.	.	.	.	.	.	.	.	.	.	16ee-\JJ	.	16gg\JJ	.
!LO:TX:t=P:problem=mixed beam	!	!	!	!	!	!	!	!	!	!	!	!	!	!	!LO:TX:t=P:problem=mixed beam	!	!	!	!	!
8B-\L	.	.	2r	.	.	2r	.	.	2r	.	.	2r	.	.	8b-\L	.	(16ee-\LL	.	(16gg\LL	.
.	.	.	.	.	.	.	.	.	.	.	.	.	.	.	.	.	16dd\)	.	16ff\)	.
8BB-/J	.	.	.	.	.	.	.	.	.	.	.	.	.	.	8B-/J	.	16dd'\	.	16ff'\	.
.	.	.	.	.	.	.	.	.	.	.	.	.	.	.	.	.	16dd'\JJ	.	16ff'\JJ	.
!	!	!	!	!	!	!	!	!	!	!	!	!	!	!	!	!	!LO:SIC:s=(16ddLL	!	!	!
8r	.	.	.	.	.	.	.	.	.	.	.	.	.	.	8r	.	16dd\LL	.	(16ff\LL	.
.	.	.	.	.	.	.	.	.	.	.	.	.	.	.	.	.	32ee-\L	.	32gg\L	.
.	.	.	.	.	.	.	.	.	.	.	.	.	.	.	.	.	32ff\J	.	32aa-\J	.
!	!	!	!	!	!	!	!	!	!	!	!	!	!	!	!	!	!LO:SIC:s=16ee-)	!	!	!
8BBn/	6 5	.	.	.	.	.	.	.	.	.	.	.	.	.	8Bn/	.	16ee-\	.	16gg\)	.
.	.	.	.	.	.	.	.	.	.	.	.	.	.	.	.	.	16dd\JJ	.	16ff\JJ	.
=17	=17	=17	=17	=17	=17	=17	=17	=17	=17	=17	=17	=17	=17	=17	=17	=17	=17	=17	=17	=17
*	*	*	*	*	*	*	*	*	*	*	*	*	*	*	*	*	*xywh-#23:7344,4260,4829,553	*	*	*
!	!	!	!	!	!	!	!	!	!	!	!	!	!	!	!	!	!LO:LB:g=original	!	!	!
!LO:TX:t=P:problem=mixed beam	!	!	!	!	!	!LO:TX:t=3	!	!	!	!	!	!	!	!	!LO:TX:t=P:problem=mixed beam	!	!	!	!	!
8C/L	.	.	00r	.	.	0r	.	.	00r	.	.	00r	.	.	8c\L	.	(16dd\LL	.	(16ff\LL	.
.	.	.	.	.	.	.	.	.	.	.	.	.	.	.	.	.	16cc\)	.	16ee-\)	.
8C/	.	.	.	.	.	.	.	.	.	.	.	.	.	.	8c\	.	16cc'\	.	16ee-'\	.
.	.	.	.	.	.	.	.	.	.	.	.	.	.	.	.	.	16cc'\JJ	.	16ee-'\JJ	.
8c\	.	.	.	.	.	.	.	.	.	.	.	.	.	.	8cc\	.	4cc\	.	4ee-\	.
8B-\J	2	.	.	.	.	.	.	.	.	.	.	.	.	.	8b-\J	.	.	.	.	.
*	*	*	*	*	*	*	*	*	*	*	*	*	*	*	*tremolo	*	*	*	*	*
!	!	!	!	!	!	!	!	!	!	!	!	!	!	!	!LO:SIC:v:s=8anL	!	!	!	!	!
8An\L	.	.	.	.	.	.	.	.	.	.	.	.	.	.	8a-\L	.	8cc\L	.	8.ee-\L	.
!	!	!	!	!	!	!	!	!	!	!	!	!	!	!	!LO:SIC:v:s=8a	!	!	!	!	!
8A\	-	.	.	.	.	.	.	.	.	.	.	.	.	.	8a-\	.	8cc\	.	.	.
.	7	.	.	.	.	.	.	.	.	.	.	.	.	.	.	.	.	.	32ff\LL	.
.	.	.	.	.	.	.	.	.	.	.	.	.	.	.	.	.	.	.	32gg-X\JJJ	.
!	!	!	!	!	!	!	!	!	!	!	!	!	!	!	!LO:SIC:v:s=8a	!	!	!	!	!
8A\	6	.	.	.	.	.	.	.	.	.	.	.	.	.	8a-\	.	8cc\	.	16gg-\LL	.
.	5	.	.	.	.	.	.	.	.	.	.	.	.	.	.	.	.	.	16ff\	.
!	!	!	!	!	!	!	!	!	!	!	!	!	!	!	!LO:SIC:v:s=8aJ	!	!	!	!	!
8A\J	.	.	.	.	.	.	.	.	.	.	.	.	.	.	8a-\J	.	8cc\J	.	16ff\	.
.	.	.	.	.	.	.	.	.	.	.	.	.	.	.	.	.	.	.	16ee-\JJ	.
*	*	*	*	*	*	*	*	*	*	*	*	*	*	*	*Xtremolo	*	*	*	*	*
=18	=18	=18	=18	=18	=18	=18	=18	=18	=18	=18	=18	=18	=18	=18	=18	=18	=18	=18	=18	=18
!LO:TX:t=P:problem=mixed beam	!	!	!	!	!	!	!	!	!	!	!	!	!	!	!LO:TX:t=P:problem=mixed beam	!	!	!	!	!
8B-\L	.	.	.	.	.	.	.	.	.	.	.	.	.	.	8b-\L	.	8f/	.	16ee-\LL	.
.	.	.	.	.	.	.	.	.	.	.	.	.	.	.	.	.	.	.	16dd\JJ	.
8BB-/J	.	.	.	.	.	.	.	.	.	.	.	.	.	.	8B-/J	.	16r	.	16r	.
.	.	.	.	.	.	.	.	.	.	.	.	.	.	.	.	.	16aa-\	.	16ccc\	.
!	!	!	!	!	!	!	!	!	!	!	!	!	!	!	!	!	!	!	!LO:SIC:s=(16cccLL	!
8r	.	.	.	.	.	.	.	.	.	.	.	.	.	.	8r	.	(16aa-\LL	.	16ccc\LL	.
!	!	!	!	!	!	!	!	!	!	!	!	!	!	!	!	!	!	!	!LO:SIC:s=16bb-)	!
.	.	.	.	.	.	.	.	.	.	.	.	.	.	.	.	.	16gg\)	.	16bb-\	.
!	!	!	!	!	!	!	!	!	!	!	!	!	!	!	!	!	!	!	!LO:SIC:s=(16bb-	!
8D\	6 5	.	.	.	.	.	.	.	.	.	.	.	.	.	8d\	.	(16gg\	.	16bb-\	.
!	!	!	!	!	!	!	!	!	!	!	!	!	!	!	!	!	!	!	!LO:SIC:s=16aa-JJ)	!
.	.	.	.	.	.	.	.	.	.	.	.	.	.	.	.	.	16ff\JJ)	.	16aa-\JJ	.
8E-\L	.	.	.	.	.	.	.	.	.	.	.	.	.	.	8e-\L	.	16ee-\LL	.	16gg\LL	.
.	.	.	.	.	.	.	.	.	.	.	.	.	.	.	.	.	16gg\JJ	.	16bb-\JJ	.
8G\	6	.	.	.	.	.	.	.	.	.	.	.	.	.	8B-\	.	16r	.	16r	.
.	.	.	.	.	.	.	.	.	.	.	.	.	.	.	.	.	16ee-\	.	16ee-\	.
8A-\	6	.	.	.	.	.	.	.	.	.	.	.	.	.	8c\	.	16ff\KL	.	16ff\KL	.
.	.	.	.	.	.	.	.	.	.	.	.	.	.	.	.	.	8ee-\	.	8ee-\	.
8B-\J	.	.	.	.	.	.	.	.	.	.	.	.	.	.	8B-\J	.	.	.	.	.
.	.	.	.	.	.	.	.	.	.	.	.	.	.	.	.	.	16dd\Jk	.	16dd\Jk	.
=19	=19	=19	=19	=19	=19	=19	=19	=19	=19	=19	=19	=19	=19	=19	=19	=19	=19	=19	=19	=19
*xywh-#39:2101,6087,4866,623	*	*	*	*	*	*	*	*	*	*	*	*	*	*	*xywh-#29:2254,1029,4789,637	*	*	*	*	*
!LO:LB:g=original	!	!	!	!	!	!	!	!	!	!	!	!	!	!	!LO:PB:g=original	!	!	!	!LO:SIC:s=(16ddLL	!
8c\L	5	.	.	.	.	1r	.	.	.	.	.	.	.	.	8A-/L	.	(16dd\LL	.	16dd\LL	.
!	!	!	!	!	!	!	!	!	!	!	!	!	!	!	!	!	!	!	!LO:SIC:s=16ee-JJ)	!
.	.	.	.	.	.	.	.	.	.	.	.	.	.	.	.	.	16ee-\JJ)	.	16ee-\JJ	.
8G\	6	.	.	.	.	.	.	.	.	.	.	.	.	.	8B-/	.	16r	.	16r	.
.	.	.	.	.	.	.	.	.	.	.	.	.	.	.	.	.	16ee-\	.	16ee-\	.
8A-\	6	.	.	.	.	.	.	.	.	.	.	.	.	.	8c/	.	16ff\KL	.	16ff\KL	.
.	.	.	.	.	.	.	.	.	.	.	.	.	.	.	.	.	8ee-\	.	8ee-\	.
8B-\J	7	.	.	.	.	.	.	.	.	.	.	.	.	.	8A-/J	.	.	.	.	.
.	.	.	.	.	.	.	.	.	.	.	.	.	.	.	.	.	16dd\Jk	.	16dd\Jk	.
*	*	*	*	*	*	*	*	*	*	*	*	*	*	*	*	*	*	*	*xywh-#18:2075,2542,4739,602	*
!LO:TX:t=P:problem=mixed beam	!	!	!	!	!	!	!	!	!	!	!	!	!	!	!	!	!	!	!LO:LB:g=original	!
8c\L	5	.	.	.	.	.	.	.	.	.	.	.	.	.	8G/L	.	16ee-\LL	.	16ee-\LL	.
.	.	.	.	.	.	.	.	.	.	.	.	.	.	.	.	.	16aa-\	.	16ccc\	.
8A-\	6	.	.	.	.	.	.	.	.	.	.	.	.	.	8A-/	.	16gg\	.	16bb-\	.
.	.	.	.	.	.	.	.	.	.	.	.	.	.	.	.	.	16ff\JJ	.	16aa-\JJ	.
8B-\	4	.	.	.	.	.	.	.	.	.	.	.	.	.	8B-/	.	8ee-\L	.	8gg\L	.
8BB-/J	3	.	.	.	.	.	.	.	.	.	.	.	.	.	8B-/J	.	8dd\J	.	8ffW\J	.
=20	=20	=20	=20	=20	=20	=20	=20	=20	=20	=20	=20	=20	=20	=20	=20	=20	=20	=20	=20	=20
!	!	!	!	!	!	!LO:MO:mod=!null:null	!	!	!	!	!	!	!	!	!	!	!	!	!	!
!	!	!	!	!	!	!LO:TX:a:t=Solo	!	!	!	!	!	!	!	!	!	!	!	!	!	!
4E-\	.	.	.	.	.	2r	.	.	.	.	.	.	.	.	4e-\	.	8ee-\L	.	8ee-\L	.
.	.	.	.	.	.	.	.	.	.	.	.	.	.	.	.	.	8b-\J	.	8b-\J	.
4r	.	.	.	.	.	.	.	.	.	.	.	.	.	.	4r	.	4e-/	.	4e-/	.
!	!	!	!	!	!	!LO:MO:null:mod=!LO&colon;TX&colon;t=Solo	!	!	!	!	!	!	!	!	!	!	!	!	!	!
!	!	!	!	!	!	!	!	!	!	!	!	!	!	!	!	!LO:MO:null:mod=.	!	!	!	!
8r	.	.	.	.	.	(4.B-\	Jux-	.	.	.	.	.	.	.	8r	p	8r	.	4.b-\	p
!	!	!	!	!	!	!	!	!	!	!	!	!	!	!	!	!LO:MO:null:mod=p	!	!	!	!
8E-\L	.	p	.	.	.	.	.	.	.	.	.	.	.	.	8e-\L	.	8g/L	p	.	.
8G\	6	.	.	.	.	.	.	.	.	.	.	.	.	.	8g\	.	8b-/	.	.	.
.	.	.	.	.	.	16qqc/LL)	.	.	.	.	.	.	.	.	.	.	.	.	.	.
.	.	.	.	.	.	16qqd/JJ	.	.	.	.	.	.	.	.	.	.	.	.	.	.
8E-\J	.	.	.	.	.	8e-\	-ta	.	.	.	.	.	.	.	8e-\J	.	8g/J	.	8ee-\	.
=21	=21	=21	=21	=21	=21	=21	=21	=21	=21	=21	=21	=21	=21	=21	=21	=21	=21	=21	=21	=21
*	*	*	*	*	*	*	*	*	*	*	*	*	*	*	*	*	*xywh-#23:7257,4697,4902,437	*	*	*
!	!	!	!	!	!	!	!	!	!	!	!	!	!	!	!	!	!LO:LB:g=original	!	!	!
.	.	.	.	.	.	16qqe-/	.	.	.	.	.	.	.	.	.	.	.	.	16qqee-/	.
8r	.	.	00r	.	.	4.d\	cru-	.	00r	.	.	00r	.	.	8r	.	4.f/	.	4.dd\	.
8B-\L	.	.	.	.	.	.	.	.	.	.	.	.	.	.	8B-/L	.	.	.	.	.
8A-\	2	.	.	.	.	.	.	.	.	.	.	.	.	.	8A-/	.	.	.	.	.
8G\J	6	.	.	.	.	8e-\	-cem	.	.	.	.	.	.	.	8G/J	.	8g/	.	8ee-\	.
*	*	*	*	*	*	*xywh-#10:2219,3583,4850,589	*	*	*	*	*	*	*	*	*	*	*	*	*	*
!	!	!	!	!	!	!LO:LB:g=original	!	!	!	!	!	!	!	!	!	!	!	!	!	!
8r	.	.	.	.	.	8.c\L	te-	.	.	.	.	.	.	.	8r	.	4a-/	.	8.cc\L	.
!LO:TX:t=P:problem=mixed beam	!	!	!	!	!	!	!	!	!	!	!	!	!	!	!	!	!	!	!	!
8A-\L	.	.	.	.	.	.	.	.	.	.	.	.	.	.	8c\L	.	.	.	.	.
!	!	!	!	!	!	!LO:N:vis=16	!	!	!	!	!	!	!	!	!	!	!	!	!	!
.	.	.	.	.	.	32B-\LL	.	.	.	.	.	.	.	.	.	.	.	.	32b-\LL	.
!	!	!	!	!	!	!LO:N:vis=16	!	!	!	!	!	!	!	!	!	!	!	!	!	!
.	.	.	.	.	.	32c\JJJ	.	.	.	.	.	.	.	.	.	.	.	.	32cc\JJJ	.
8B-\	7	.	.	.	.	8B-\	.	.	.	.	.	.	.	.	8d\	.	8f/L	.	8b-\L	.
!	!	!	!	!	!	!LO:TX:t=P:problem=niejednoznaczne podłożenie tekstu	!	!	!	!	!	!	!	!	!	!	!	!	!	!
8BB-/J	.	.	.	.	.	8A-\	-cum	.	.	.	.	.	.	.	8d\J	.	8f/J	.	8a-\J	.
=22	=22	=22	=22	=22	=22	=22	=22	=22	=22	=22	=22	=22	=22	=22	=22	=22	=22	=22	=22	=22
!	!	!	!	!	!	!	!	!	!	!	!	!	!	!	!LO:TX:t=P:problem=mixed beam	!	!	!	!	!
8E-\L	.	.	.	.	.	16G\LL	sta-	.	.	.	.	.	.	.	8e-\L	.	16e-/LL	.	16g\LL	.
.	.	.	.	.	.	16A-\JJ	.	.	.	.	.	.	.	.	.	.	16f/J	.	16a-\J	.
8E-\	.	.	.	.	.	8B-\	-re	.	.	.	.	.	.	.	8G/	.	8g/J	.	8b-\J	.
8G\	.	.	.	.	.	4r	.	.	.	.	.	.	.	.	8B-/	.	4r	.	4r	.
8E-\J	.	.	.	.	.	.	.	.	.	.	.	.	.	.	8G/J	.	.	.	.	.
8r	.	.	.	.	.	4.c\	te	.	.	.	.	.	.	.	8r	.	16r	.	16r	.
.	.	.	.	.	.	.	.	.	.	.	.	.	.	.	.	.	16e-/LL	.	16cc\LL	.
8A-\L	.	.	.	.	.	.	.	.	.	.	.	.	.	.	8A-/L	.	16e-/	.	16cc\	.
.	.	.	.	.	.	.	.	.	.	.	.	.	.	.	.	.	16e-/JJ	.	16cc\JJ	.
*	*	*	*	*	*	*24\right	*	*	*	*	*	*	*	*	*	*	*tremolo	*	*tremolo	*
!	!	!	!	!	!	!	!	!	!	!	!	!	!	!	!	!	!LO:SIC:s=16e-'LL	!	!	!
8A-\	.	.	.	.	.	.	.	.	.	.	.	.	.	.	8A-/	.	16e-/LL	.	16cc'\LL	.
!	!	!	!	!	!	!	!	!	!	!	!	!	!	!	!	!	!LO:SIC:s=16e-'	!	!	!
.	.	.	.	.	.	.	.	.	.	.	.	.	.	.	.	.	16e-/	.	16cc'\	.
!	!	!	!	!	!	!	!	!	!	!	!	!	!	!	!	!	!LO:SIC:s=16e-'	!	!	!
8A-\J	.	.	.	.	.	(24e-\LL	li-	.	.	.	.	.	.	.	8A-/J	.	16e-/	.	16cc'\	.
.	.	.	.	.	.	24d\	.	.	.	.	.	.	.	.	.	.	.	.	.	.
!	!	!	!	!	!	!	!	!	!	!	!	!	!	!	!	!	!LO:SIC:s=16e-'JJ	!	!	!
.	.	.	.	.	.	.	.	.	.	.	.	.	.	.	.	.	16e-/JJ	.	16cc'\JJ	.
.	.	.	.	.	.	24c\JJ)	.	.	.	.	.	.	.	.	.	.	.	.	.	.
*	*	*	*	*	*	*	*	*	*	*	*	*	*	*	*	*	*Xtremolo	*	*Xtremolo	*
=23	=23	=23	=23	=23	=23	=23	=23	=23	=23	=23	=23	=23	=23	=23	=23	=23	=23	=23	=23	=23
.	.	.	.	.	.	8qqc/	.	.	.	.	.	.	.	.	.	.	.	.	.	.
8r	.	.	.	.	.	4.B-\	-ben-	.	.	.	.	.	.	.	8r	.	16r	.	16r	.
.	.	.	.	.	.	.	.	.	.	.	.	.	.	.	.	.	16e-/LL	.	16b-\LL	.
8G\L	6	.	.	.	.	.	.	.	.	.	.	.	.	.	8G/L	.	16e-/	.	16b-\	.
.	.	.	.	.	.	.	.	.	.	.	.	.	.	.	.	.	16e-/JJ	.	16b-\JJ	.
*	*	*	*	*	*	*	*	*	*	*	*	*	*	*	*	*	*tremolo	*	*tremolo	*
!	!	!	!	!	!	!	!	!	!	!	!	!	!	!	!	!	!LO:SIC:s=16e-'LL	!	!	!
8G\	.	.	.	.	.	.	.	.	.	.	.	.	.	.	8G/	.	16e-/LL	.	16b-'\LL	.
!	!	!	!	!	!	!	!	!	!	!	!	!	!	!	!	!	!LO:SIC:s=16e-'	!	!	!
.	.	.	.	.	.	.	.	.	.	.	.	.	.	.	.	.	16e-/	.	16b-'\	.
!	!	!	!	!	!	!	!	!	!	!	!	!	!	!	!	!	!LO:SIC:s=16e-'	!	!	!
8G\J	.	.	.	.	.	32A-/LLL	-ter	.	.	.	.	.	.	.	8G/J	.	16e-/	.	16b-'\	.
.	.	.	.	.	.	32G/	.	.	.	.	.	.	.	.	.	.	.	.	.	.
!	!	!	!	!	!	!	!	!	!	!	!	!	!	!	!	!	!LO:SIC:s=16e-'JJ	!	!	!
.	.	.	.	.	.	32F/	.	.	.	.	.	.	.	.	.	.	16e-/JJ	.	16b-'\JJ	.
*	*	*	*	*	*	*	*	*	*	*	*	*	*	*	*	*	*Xtremolo	*	*Xtremolo	*
.	.	.	.	.	.	32E-/JJJ	.	.	.	.	.	.	.	.	.	.	.	.	.	.
*xywh-#39:2089,6491,4789,754	*	*	*	*	*	*	*	*	*	*	*	*	*	*	*	*	*	*	*	*
.	.	.	.	.	.	8qqB-/	.	.	.	.	.	.	.	.	.	.	.	.	.	.
!LO:LB:g=original	!	!	!	!	!	!	!	!	!	!	!	!	!	!	!	!	!	!	!	!
8F\L	5	.	.	.	.	4A-\	so-	.	.	.	.	.	.	.	8c\L	.	16r	.	16r	.
.	.	.	.	.	.	.	.	.	.	.	.	.	.	.	.	.	16f/LL	.	16a-\LL	.
8D\	6 5	.	.	.	.	.	.	.	.	.	.	.	.	.	8B-\	.	16f/	.	16a-\	.
.	.	.	.	.	.	.	.	.	.	.	.	.	.	.	.	.	16f/JJ	.	16a-\JJ	.
8E-\	.	.	.	.	.	4G\	-ci-	.	.	.	.	.	.	.	8B-\	.	16r	.	16r	.
.	.	.	.	.	.	.	.	.	.	.	.	.	.	.	.	.	16e-/LL	.	16g\LL	.
8AAn\J	7	.	.	.	.	.	.	.	.	.	.	.	.	.	8c\J	.	16e-/	.	16g\	.
.	.	.	.	.	.	.	.	.	.	.	.	.	.	.	.	.	16e-/JJ	.	16g\JJ	.
=24	=24	=24	=24	=24	=24	=24	=24	=24	=24	=24	=24	=24	=24	=24	=24	=24	=24	=24	=24	=24
8BB-/L	6 4	.	.	.	.	8G/	-a-	.	.	.	.	.	.	.	8B-\L	.	8e-/L	.	8g/L	.
16BB-/L	5 3	.	.	.	.	8F/	-re	.	.	.	.	.	.	.	16d\L	.	8d/J	.	8f/J	.
16AA-/JJ	.	.	.	.	.	.	.	.	.	.	.	.	.	.	16c\JJ	.	.	.	.	.
8BB-/L	.	.	.	.	.	4r	.	.	.	.	.	.	.	.	8d\L	.	4r	.	4r	.
8C/J	.	.	.	.	.	.	.	.	.	.	.	.	.	.	8e-\J	.	.	.	.	.
*	*	*	*	*	*	*	*	*	*	*	*	*	*	*	*	*	*	*	*xywh-#18:2098,3032,4698,555	*
!	!	!	!	!	!	!	!	!	!	!	!	!	!	!	!	!	!	!	!LO:LB:g=original	!
*	*	*	*	*	*	*	*	*	*	*	*	*	*	*	*tremolo	*	*	*	*	*
8D\L	6	.	.	.	.	4.F/	te	.	.	.	.	.	.	.	8d\L	.	16r	.	16r	.
.	.	.	.	.	.	.	.	.	.	.	.	.	.	.	.	.	16f/LL	.	16b-\LL	.
8D\	.	.	.	.	.	.	.	.	.	.	.	.	.	.	8d\	.	16f/	.	16b-\	.
.	.	.	.	.	.	.	.	.	.	.	.	.	.	.	.	.	16f/JJ	.	16b-\JJ	.
8D\	.	.	.	.	.	.	.	.	.	.	.	.	.	.	8d\	.	16r	.	16r	.
.	.	.	.	.	.	.	.	.	.	.	.	.	.	.	.	.	16f/LL	.	16b-\LL	.
8D\J	.	.	.	.	.	8B-\	li-	.	.	.	.	.	.	.	8d\J	.	16f/	.	16b-\	.
.	.	.	.	.	.	.	.	.	.	.	.	.	.	.	.	.	16f/JJ	.	16b-\JJ	.
=25	=25	=25	=25	=25	=25	=25	=25	=25	=25	=25	=25	=25	=25	=25	=25	=25	=25	=25	=25	=25
*	*	*	*	*	*	*	*	*	*	*	*	*	*	*	*	*	*xywh-#23:7257,5090,4822,539	*	*	*
!	!	!	!	!	!	!	!	!	!	!	!	!	!	!	!	!	!LO:LB:g=original	!	!LO:TX:t=P:problem=znak powtórzenia grupy	!
.	.	.	.	.	.	16qqA-/	.	.	.	.	.	.	.	.	.	.	.	.	.	.
8E-\L	.	.	00r	.	.	4G\	-ben-	.	00r	.	.	00r	.	.	8e-\L	.	16r	.	16r	.
.	.	.	.	.	.	.	.	.	.	.	.	.	.	.	.	.	16g/LL	.	16b-\LL	.
8E-\	.	.	.	.	.	.	.	.	.	.	.	.	.	.	8e-\	.	16g/	.	16b-\	.
.	.	.	.	.	.	.	.	.	.	.	.	.	.	.	.	.	16g/JJ	.	16b-\JJ	.
!	!	!	!	!	!	!	!	!	!	!	!	!	!	!	!	!	!	!	!LO:TX:t=P:problem=znak powtórzenia grupy	!
8E-\	.	.	.	.	.	4G\	-ter	.	.	.	.	.	.	.	8e-\	.	16r	.	16r	.
.	.	.	.	.	.	.	.	.	.	.	.	.	.	.	.	.	16g/LL	.	16b-\LL	.
8E-\J	.	.	.	.	.	.	.	.	.	.	.	.	.	.	8e-\J	.	16g/	.	16b-\	.
.	.	.	.	.	.	.	.	.	.	.	.	.	.	.	.	.	16g/JJ	.	16b-\JJ	.
*	*	*	*	*	*	*	*	*	*	*	*	*	*	*	*Xtremolo	*	*	*	*	*
*	*	*	*	*	*	*xywh-#10:2282,4070,4827,560	*	*	*	*	*	*	*	*	*xywh-#29:2249,1594,4855,485	*	*	*	*	*
!	!	!	!	!	!	!LO:LB:g=original	!	!	!	!	!	!	!	!	!LO:LB:g=original	!	!	!	!	!
8C/L	.	.	.	.	.	4c\	so-	.	.	.	.	.	.	.	8c\L	.	16r	.	16r	.
.	.	.	.	.	.	.	.	.	.	.	.	.	.	.	.	.	16e-/LL	.	16cc\LL	.
8C/	.	.	.	.	.	.	.	.	.	.	.	.	.	.	8c\	.	16e-/	.	16cc\	.
.	.	.	.	.	.	.	.	.	.	.	.	.	.	.	.	.	16e-/JJ	.	16cc\JJ	.
8C/	6|	.	.	.	.	16c\LL	.	.	.	.	.	.	.	.	8e-\	.	16e-/LL	.	16cc\LL	.
.	.	.	.	.	.	16B-\JJ	.	.	.	.	.	.	.	.	.	.	16d/	.	16b-\	.
8C/J	5	.	.	.	.	16An\LL	-ci-	.	.	.	.	.	.	.	8e-\J	.	16c/	.	16an\	.
.	.	.	.	.	.	16G\JJ	.	.	.	.	.	.	.	.	.	.	16B-/JJ	.	16g\JJ	.
=26	=26	=26	=26	=26	=26	=26	=26	=26	=26	=26	=26	=26	=26	=26	=26	=26	=26	=26	=26	=26
!	!	!	!	!	!	!	!	!	!	!	!	!	!	!	!LO:TX:t=P:problem=mixed beam	!	!	!	!	!
8D/L	4	.	.	.	.	8G/	-a-	.	.	.	.	.	.	.	8d\L	.	8B-/L	.	8g/L	.
8DD/	#	.	.	.	.	8F#X/	-re	.	.	.	.	.	.	.	8D/	.	8An/J	.	8f#X/J	.
8D/J	.	.	.	.	.	8r	.	.	.	.	.	.	.	.	8d\J	.	4r	.	4r	.
8r	.	.	.	.	.	16r	.	.	.	.	.	.	.	.	8r	.	.	.	.	.
.	.	.	.	.	.	16An\	in	.	.	.	.	.	.	.	.	.	.	.	.	.
8r	.	.	.	.	.	8B-^\	plan-	.	.	.	.	.	.	.	8r	.	8r	.	8r	.
8D\L	#	.	.	.	.	8A\	-tu	.	.	.	.	.	.	.	16r	.	16r	.	16r	.
.	.	.	.	.	.	.	.	.	.	.	.	.	.	.	16d\	.	16ff#X\	.	16aan\	.
8G\	.	.	.	.	.	8r	.	.	.	.	.	.	.	.	8d\L	.	8gg\L	.	8bb-\L	.
8D\J	.	.	.	.	.	16r	.	.	.	.	.	.	.	.	8d\J	.	8ff#\J	.	8aa\J	.
*	*	*	*	*	*	*	*ij	*	*	*	*	*	*	*	*	*	*	*	*	*
.	.	.	.	.	.	16d^\	in	.	.	.	.	.	.	.	.	.	.	.	.	.
=27	=27	=27	=27	=27	=27	=27	=27	=27	=27	=27	=27	=27	=27	=27	=27	=27	=27	=27	=27	=27
8r	.	.	.	.	.	8B-\	plan-	.	.	.	.	.	.	.	8r	.	8r	.	8r	.
16r	.	.	.	.	.	8An\	-tu	.	.	.	.	.	.	.	16r	.	16r	.	16r	.
16D\	#	.	.	.	.	.	.	.	.	.	.	.	.	.	16d\	.	16f#X/	.	16an/	.
8G\L	.	.	.	.	.	8r	.	.	.	.	.	.	.	.	8d\L	.	8g/L	.	8b-/L	.
8D\J	.	.	.	.	.	16r	.	.	.	.	.	.	.	.	8d\J	.	8f#/J	.	8a/J	.
.	.	.	.	.	.	16D/	in	.	.	.	.	.	.	.	.	.	.	.	.	.
*xywh-#39:2060,6996,4836,635	*	*	*	*	*	*	*	*	*	*	*	*	*	*	*	*	*	*	*	*
!LO:LB:g=original	!	!	!	!	!	!	!	!	!	!	!	!	!	!	!	!	!	!	!	!
8D\L	#	.	.	.	.	4d^\	plan-	.	.	.	.	.	.	.	8d\L	.	16r	.	16r	.
.	.	.	.	.	.	.	.	.	.	.	.	.	.	.	.	.	16f#/LL	.	16dd\LL	.
8D\	.	.	.	.	.	.	.	.	.	.	.	.	.	.	8d\	.	16f#/	.	16dd\	.
.	.	.	.	.	.	.	.	.	.	.	.	.	.	.	.	.	16f#/JJ	.	16dd\JJ	.
8En\	6|	.	.	.	.	8c#X\	-tu	.	.	.	.	.	.	.	8en\	.	16g/LL	.	16cc#X\LL	.
*	*	*	*	*	*	*	*Xij	*	*	*	*	*	*	*	*	*	*	*	*	*
.	.	.	.	.	.	.	.	.	.	.	.	.	.	.	.	.	16g/	.	16cc#\	.
8F#X\J	5n	.	.	.	.	8cn\	de-	.	.	.	.	.	.	.	8f#X\J	.	16an/	.	16ccn\	.
.	.	.	.	.	.	.	.	.	.	.	.	.	.	.	.	.	16a/JJ	.	16cc\JJ	.
=28	=28	=28	=28	=28	=28	=28	=28	=28	=28	=28	=28	=28	=28	=28	=28	=28	=28	=28	=28	=28
*	*	*	*	*	*	*	*	*	*	*	*	*	*	*	*	*	*	*	*xywh-#18:2045,3521,4889,596	*
!	!	!	!	!	!	!	!	!	!	!	!	!	!	!	!	!	!	!	!LO:LB:g=original	!
!	!	!	!	!	!	!	!	!	!	!	!	!	!	!	!LO:TX:t=P:problem=mixed beam	!	!	!	!	!
8G\L	.	.	.	.	.	8.B-\L	-si-	.	.	.	.	.	.	.	8g\L	.	8.g/L	.	8.b-\L	.
8G\	.	.	.	.	.	.	.	.	.	.	.	.	.	.	8G/J	.	.	.	.	.
*	*	*	*	*	*	*32\right	*	*	*	*	*	*	*	*	*	*	*	*	*	*
.	.	.	.	.	.	32An\LL	.	.	.	.	.	.	.	.	.	.	32f#X/LL	.	32an\LL	.
.	.	.	.	.	.	32B-\JJJ	.	.	.	.	.	.	.	.	.	.	32g/JJJ	.	32b-\JJJ	.
8C\	6|	.	.	.	.	16c\LL	.	.	.	.	.	.	.	.	8c\L	.	8e-/L	.	16cc\LL	.
.	.	.	.	.	.	16B-\JJ	.	.	.	.	.	.	.	.	.	.	.	.	16b-\	.
8C#X\J	5	.	.	.	.	16A\LL	-de-	.	.	.	.	.	.	.	8c#X\J	.	8en/J	.	16a\	.
.	.	.	.	.	.	16G\JJ	.	.	.	.	.	.	.	.	.	.	.	.	16g\JJ	.
*	*	*	*	*	*	*xywh-#10:2247,4516,4941,640	*	*	*	*	*	*	*	*	*	*	*	*	*	*
!	!	!	!	!	!	!LO:LB:g=original	!	!	!	!	!	!	!	!	!	!	!	!	!	!
.	.	.	.	.	.	8qqG/	.	.	.	.	.	.	.	.	.	.	.	.	16qqg/	.
*	*	*	*	*	*	*	*	*	*	*	*	*	*	*	*	*	*xywh-#23:7301,5534,4807,553	*	*	*
!	!	!	!	!	!	!	!	!	!	!	!	!	!	!	!	!	!LO:LB:g=original	!	!	!
!	!	!	!	!	!	!	!	!	!	!	!	!	!	!	!	!	!LO:SIC:v:s=4An	!	!	!
(8D\L	.	.	.	.	.	4F#X/	-ro	.	.	.	.	.	.	.	8.d\L	.	4A-/	.	4f#X/	.
16r	.	.	.	.	.	.	.	.	.	.	.	.	.	.	.	.	.	.	.	.
16e-\Jk)	.	.	.	.	.	.	.	.	.	.	.	.	.	.	16e-\Jk	.	.	.	.	.
16d'\LL	.	.	.	.	.	4r	.	.	.	.	.	.	.	.	16d'\LL	.	4r	.	4r	.
!	!	!	!	!	!	!	!	!	!	!	!	!	!	!	!LO:SIC:v:s=16cn'	!	!	!	!	!
16c'\	.	.	.	.	.	.	.	.	.	.	.	.	.	.	16c#\	.	.	.	.	.
16B-'\	.	.	.	.	.	.	.	.	.	.	.	.	.	.	16B-'\	.	.	.	.	.
16An'\JJ	.	.	.	.	.	.	.	.	.	.	.	.	.	.	16An'\JJ	.	.	.	.	.
=29	=29	=29	=29	=29	=29	=29	=29	=29	=29	=29	=29	=29	=29	=29	=29	=29	=29	=29	=29	=29
!	!	!	!	!	!LO:MO:null:mod=!LO&colon;DY&colon;ed=brack	!	!	!	!	!	!LO:MO:null:mod=!LO&colon;DY&colon;ed=brack	!	!	!LO:MO:null:mod=!LO&colon;DY&colon;ed=brack	!	!	!	!	!	!
!	!	!LO:MO:mod=!null:null	!	!	!	!	!	!	!	!	!	!	!	!	!	!	!	!	!	!
!LO:TX:t=P:problem=mixed beam	!	!LO:DY:t=for	!	!	!LO:MO:null:mod=f	!	!	!LO:HP:t=for	!	!	!LO:MO:null:mod=f	!	!	!LO:MO:null:mod=f	!	!	!	!LO:HP:t=for	!	!LO:HP:t=for
8G\L	.	f	8.G\	Ju-	.	8.G\	Ju-	f	8.b-\	Ju-	.	8.dd\	Ju-	.	8G\L	f	8bb-\L	f	8ddd\L	f
8GG/J	.	.	.	.	.	.	.	.	.	.	.	.	.	.	8g\J	.	16r	.	16r	.
.	.	.	16G\	-xta	.	16d\	-xta	.	16g\	-xta	.	16b-\	-xta	.	.	.	16gg\Jk	.	16bb-\Jk	.
*	*	*	*xywh-#12:7290,6187,4760,646	*	*	*	*	*	*	*	*	*xywh-#5:2104,2215,4984,458	*	*	*	*	*	*	*	*
!	!	!	!LO:LB:g=original	!	!	!	!	!	!	!	!	!LO:LB:g=original	!	!	!	!	!	!	!	!
8r	.	.	8G\	cru-	.	8d\	cru-	.	16g\LL	cru-	.	16b-\LL	cru-	.	8r	.	16gg\LL	.	16bb-\LL	.
.	.	.	.	.	.	.	.	.	16an\JJ	.	.	16cc\JJ	.	.	.	.	16aan\	.	16ccc\	.
8G\	.	.	8G\	-cem	.	8d\	-cem	.	16a\LL	-cem	.	16b-\LL	-cem	.	8G/	.	16aa\	.	16ccc\	.
.	.	.	.	.	.	.	.	.	16b-\JJ	.	.	16cc\JJ	.	.	.	.	16bb-\JJ	.	16ddd\JJ	.
*	*	*	*	*	*	*	*	*	*xywh-#8:2180,1837,4938,642	*	*	*	*	*	*	*	*	*	*	*
!LO:TX:t=P:problem=mixed beam	!	!	!	!	!	!	!	!	!LO:LB:g=original	!	!	!	!	!	!LO:TX:t=P:problem=mixed beam	!	!	!	!	!
8d\L	.	.	8.D\	te-	.	8.d\	te-	.	8.a\	te-	.	8.cc\	te-	.	8d\L	.	8aa\L	.	8ccc\L	.
8D/J	7 #	.	.	.	.	.	.	.	.	.	.	.	.	.	8D/J	.	16r	.	16r	.
.	.	.	16D\	-cum	.	16d\	-cum	.	16f#X\	-cum	.	16aX\	-cum	.	.	.	16ff#X\Jk	.	16aan\Jk	.
8r	.	.	8D\	sta-	.	8d\	sta-	.	16f#\LL	sta-	.	16a\LL	sta-	.	8r	.	16ff#\LL	.	16aa\LL	.
.	.	.	.	.	.	.	.	.	16g\JJ	.	.	16b-\JJ	.	.	.	.	16gg\	.	16bb-\	.
8D/	.	.	8D\	-re	.	8d\	-re	.	16g\LL	-re	.	16b-\LL	-re	.	8d\	.	16gg\	.	16bb-\	.
.	.	.	.	.	.	.	.	.	16a\JJ	.	.	16cc\JJ	.	.	.	.	16aa\JJ	.	16ccc\JJ	.
=30	=30	=30	=30	=30	=30	=30	=30	=30	=30	=30	=30	=30	=30	=30	=30	=30	=30	=30	=30	=30
*	*	*	*	*	*	*	*	*	*	*	*	*	*	*	*xywh-#29:2255,2031,4752,473	*	*	*	*	*
!	!	!	!	!	!	!	!	!	!	!	!	!	!	!	!LO:LB:g=original	!	!	!	!	!
8G\L	.	.	8G\	te	.	8d\	te	.	8g\	te	.	8b-\	te	.	8d\L	.	8gg\L	.	8bb-\L	.
8B-\	6	.	8B-\	li-	.	8d\	li-	.	8g\	li-	.	8dd\	li-	.	8B-\	.	16r	.	16r	.
.	.	.	.	.	.	.	.	.	.	.	.	.	.	.	.	.	16dd\Jk	.	16gg\Jk	.
8c\	6-	.	8c\	-ben-	.	8c\	-ben-	.	8a-X\	-ben-	.	8ee-\	-ben-	.	8c\	.	16.ee-\LL	.	16.aa-X\LL	.
.	.	.	.	.	.	.	.	.	.	.	.	.	.	.	.	.	32ee-\K	.	32aa-\K	.
8B-\J	6	.	8B-\	-ter	.	8B-\	-ter	.	8g\	-ter	.	8dd\	-ter	.	8B-\J	.	16.dd\	.	16.gg\	.
.	.	.	.	.	.	.	.	.	.	.	.	.	.	.	.	.	32dd\JJk	.	32gg\JJk	.
!	!	!	!	!	!	!LO:SIC:v:s=8A	!	!	!	!	!	!	!	!	!LO:SIC:v:s=8AnL	!	!	!	!	!
8An\L	6|	.	8An\	so-	.	8A-\	so-	.	8f#X\	so-	.	8ccX\	so-	.	8A-/L	.	16.cc\LL	.	16.ff#X\LL	.
.	.	.	.	.	.	.	.	.	.	.	.	.	.	.	.	.	32cc\K	.	32ff#\K	.
8B-\	6	.	8B-\	-ci-	.	8B-\	-ci-	.	8g\	-ci-	.	8dd\	-ci-	.	8B-/	.	16.dd\	.	16.gg\	.
.	.	.	.	.	.	.	.	.	.	.	.	.	.	.	.	.	32dd\JJk	.	32gg\JJk	.
8c\	6-	.	8c\	-a-	.	8c\	-a-	.	8a-\	-a-	.	8ee-\	-a-	.	8c/	.	16.ee-\LL	.	16.aa-\LL	.
.	.	.	.	.	.	.	.	.	.	.	.	.	.	.	.	.	32ee-\K	.	32aa-\K	.
8B-\J	6	.	16B-\	-re	.	16B-\	-re	.	16g\	-re	.	16dd\	-re	.	8B-/J	.	16.dd\	.	16.gg\	.
.	.	.	16B-\	in	.	16B-\	in	.	16g\	in	.	16dd\	in	.	.	.	.	.	.	.
.	.	.	.	.	.	.	.	.	.	.	.	.	.	.	.	.	32dd\JJk	.	32gg\JJk	.
=31	=31	=31	=31	=31	=31	=31	=31	=31	=31	=31	=31	=31	=31	=31	=31	=31	=31	=31	=31	=31
*xywh-#39:2101,7495,4646,713	*	*	*	*	*	*	*	*	*	*	*	*	*	*	*	*	*	*	*	*
!LO:LB:g=original	!	!	!	!	!	!	!	!	!	!	!	!	!	!	!	!	!	!	!	!
*	*	*	*	*	*	*	*	*	*	*	*	*	*	*	*tremolo	*	*	*	*	*
8E-\L	6|	.	4E-\	plan-	.	4g\	plan-	.	4g\	plan-	.	4cc#\	plan-	.	8e-'\L	.	16.gg\LL	.	16.ccc#X\LL	.
.	.	.	.	.	.	.	.	.	.	.	.	.	.	.	.	.	32gg\K	.	32ccc#\K	.
8E-\	.	.	.	.	.	.	.	.	.	.	.	.	.	.	8e-'\	.	16.gg\	.	16.ccc#\	.
.	.	.	.	.	.	.	.	.	.	.	.	.	.	.	.	.	32gg\JJk	.	32ccc#\JJk	.
*	*	*	*	*	*	*	*	*	*	*	*	*	*	*	*	*	*	*	*xywh-#18:2045,3987,4936,465	*
!	!	!	!	!	!	!	!	!	!	!	!	!	!	!	!	!	!	!	!LO:LB:g=original	!
8E-\	.	.	8E-\	-ctu	.	8g\	-ctu	.	8b-\	-ctu	.	8cc#\	-ctu	.	8e-'\	.	16.gg\LL	.	16.ccc#\LL	.
.	.	.	.	.	.	.	.	.	.	.	.	.	.	.	.	.	32gg\K	.	32ccc#\K	.
8E-\J	.	.	8E-\	de-	.	8g\	de-	.	8an\	de-	.	8cc#\	de-	.	8e-'\J	.	16.gg\	.	16.ccc#\	.
.	.	.	.	.	.	.	.	.	.	.	.	.	.	.	.	.	32gg\JJk	.	32ccc#\JJk	.
*	*	*	*xywh-#12:7226,6647,4737,699	*	*	*xywh-#10:2219,5071,4878,594	*	*	*	*	*	*	*	*	*	*	*xywh-#23:7308,5928,4807,553	*	*	*
!	!	!	!	!	!	!	!	!	!	!	!	!	!	!	!	!	!LO:LB:g=original	!	!	!
!	!	!	!LO:LB:g=original	!	!	!LO:LB:g=original	!	!	!	!	!	!	!	!	!	!	!LO:TX:t=P:problem=mixed beam	!	!	!
8D\L	#	.	8.D\	-si-	.	8.f#X\	-si-	.	8.a\	-si-	.	8.dd\	-si-	.	16.d'\LL	.	16.ff#X\LL	.	16.ddd\LL	.
*	*	*	*	*	*	*	*	*	*	*	*	*	*	*	*32\right	*	*	*	*	*
!	!	!	!	!	!	!	!	!	!	!	!	!	!	!	!	!	!LO:SIC:v:s=32f#K	!	!	!
.	.	.	.	.	.	.	.	.	.	.	.	.	.	.	32d\K	.	32f/K	.	32dd\K	.
!	!	!	!	!	!	!	!	!	!	!	!	!	!	!	!	!	!LO:SIC:v:s=16.f#	!	!	!
8D\	.	.	.	.	.	.	.	.	.	.	.	.	.	.	16.d'\	.	16.f/	.	16.dd\	.
.	.	.	16D\	-de-	.	16f#\	-de-	.	16a\	-de-	.	16dd\	-de-	.	.	.	.	.	.	.
!	!	!	!	!	!	!	!	!	!	!	!	!	!	!	!	!	!LO:SIC:v:s=32f#JJk	!	!	!
.	.	.	.	.	.	.	.	.	.	.	.	.	.	.	32d'\JJk	.	32f/JJk	.	32dd\JJk	.
!	!	!	!	!	!	!	!	!	!	!	!	!	!	!	!	!	!LO:SIC:v:s=8f#	!	!	!
8D\J	.	.	8D\	-ro	.	8f#\	-ro	.	8a\	-ro	.	8dd\	-ro	.	16d'\LL	.	8f/	.	8dd\	.
.	.	.	.	.	.	.	.	.	.	.	.	.	.	.	16c'\	.	.	.	.	.
8r	.	.	8r	.	.	8r	.	.	8r	.	.	8r	.	.	16B-'\	.	8r	.	8r	.
.	.	.	.	.	.	.	.	.	.	.	.	.	.	.	16An'\JJ	.	.	.	.	.
=32	=32	=32	=32	=32	=32	=32	=32	=32	=32	=32	=32	=32	=32	=32	=32	=32	=32	=32	=32	=32
*	*	*	*	*	*	*	*	*	*	*	*	*xywh-#5:2190,2631,4856,576	*	*	*	*	*	*	*	*
!	!	!	!	!	!	!	!	!	!	!	!	!LO:LB:g=original	!	!	!	!	!	!	!	!
8G\L	.	.	4.G\	Jux-	.	4.d\	Jux-	.	4.b-\	Jux-	.	4.gg\	Jux-	.	8G/L	.	16dd\LL	.	16bb-\LL	.
.	.	.	.	.	.	.	.	.	.	.	.	.	.	.	.	.	16b-\JJ	.	16gg\JJ	.
8G\	.	.	.	.	.	.	.	.	.	.	.	.	.	.	8G/	.	16r	.	16r	.
.	.	.	.	.	.	.	.	.	.	.	.	.	.	.	.	.	16b-\	.	16gg\	.
!	!	!	!	!	!	!	!	!	!	!	!	!	!	!	!	!	!LO:MO:mod=16b-LL	!	!	!
8G\	.	.	.	.	.	.	.	.	.	.	.	.	.	.	8G/	.	16.b-\LL	.	16gg\LL	.
!	!	!	!	!	!	!	!	!	!	!	!	!	!	!	!	!	!LO:MO:null:mod=16b-	!	!	!
.	.	.	.	.	.	.	.	.	.	.	.	.	.	.	.	.	.	.	16gg\	.
!	!	!	!	!	!	!	!	!	!	!	!	!	!	!	!	!	!LO:MO:null:mod=.	!	!	!
.	.	.	.	.	.	.	.	.	.	.	.	.	.	.	.	.	32b-\K	.	.	.
!	!	!	!	!	!	!	!	!	!	!	!	!	!	!	!	!	!LO:MO:mod=16dd(	!	!	!
8G\J	.	.	8G\	-ta	.	8d\	-ta	.	8b-\	-ta	.	8gg\	-ta	.	8G/J	.	16.dd\	.	(16bb-\	.
!	!	!	!	!	!	!	!	!	!	!	!	!	!	!	!	!	!LO:MO:null:mod=16b-JJ)	!	!	!
.	.	.	.	.	.	.	.	.	.	.	.	.	.	.	.	.	.	.	16gg\JJ)	.
!	!	!	!	!	!	!	!	!	!	!	!	!	!	!	!	!	!LO:MO:null:mod=.	!	!	!
.	.	.	.	.	.	.	.	.	.	.	.	.	.	.	.	.	32b-\JJk	.	.	.
*	*	*	*	*	*	*	*	*	*xywh-#8:2211,2307,4844,537	*	*	*	*	*	*	*	*	*	*	*
!	!	!	!	!	!	!	!	!	!LO:LB:g=original	!	!	!	!	!	!	!	!	!	!	!
8An\L	7	.	8An\	cru-	.	16d\LL	cru-	.	8cc\	cru-	.	16gg\LL	cru-	.	8An/L	.	8cc\	.	16gg\LL	.
.	6|	.	.	.	.	16c\JJ	.	.	.	.	.	16ff#X\JJ	.	.	.	.	.	.	16ff#X\JJ	.
8A\	.	.	8A\	-cem	.	8c\	-cem	.	8cc\	-cem	.	8ff#\	-cem	.	8A/	.	16r	.	16r	.
.	.	.	.	.	.	.	.	.	.	.	.	.	.	.	.	.	16cc\	.	16ff#\	.
*	*	*	*	*	*	*	*	*	*	*	*	*	*	*	*	*	*tremolo	*	*tremolo	*
8A\	.	.	4r	.	.	4r	.	.	4r	.	.	4r	.	.	8A/	.	16cc\LL	.	16ff#\LL	.
.	.	.	.	.	.	.	.	.	.	.	.	.	.	.	.	.	16cc\	.	16ff#\	.
8A\J	.	.	.	.	.	.	.	.	.	.	.	.	.	.	8A/J	.	16cc\	.	16ff#\	.
.	.	.	.	.	.	.	.	.	.	.	.	.	.	.	.	.	16cc\JJ	.	16ff#\JJ	.
=33	=33	=33	=33	=33	=33	=33	=33	=33	=33	=33	=33	=33	=33	=33	=33	=33	=33	=33	=33	=33
8F#X\L	7	.	4.F#X\	te-	.	(4e-\	te-	.	4.cc\	te-	.	4.aan\	te-	.	8f#X\L	.	16ee-\LL	.	16ccc\LL	.
.	5	.	.	.	.	.	.	.	.	.	.	.	.	.	.	.	16cc\JJ	.	16aan\JJ	.
8F#\	.	.	.	.	.	.	.	.	.	.	.	.	.	.	8f#\	.	16r	.	16r	.
.	.	.	.	.	.	.	.	.	.	.	.	.	.	.	.	.	16cc\	.	16aa\	.
8F#\	.	.	.	.	.	8d\)	.	.	.	.	.	.	.	.	8f#\	.	16cc\LL	.	16aa\LL	.
.	.	.	.	.	.	.	.	.	.	.	.	.	.	.	.	.	16cc\	.	16aa\	.
!	!	!	!	!	!	!	!	!	!	!	!	!	!	!	!	!	!LO:SIC:s=(16ee-	!	!LO:SIC:s=(16ccc	!
8F#\J	.	.	8F#\	-cum	.	8d\	-cum	.	8cc\	-cum	.	8aa\	-cum	.	8f#\J	.	16ee-\	.	16ccc\	.
!	!	!	!	!	!	!	!	!	!	!	!	!	!	!	!	!	!LO:SIC:s=16ccJJ)	!	!LO:SIC:s=16aaJJ)	!
.	.	.	.	.	.	.	.	.	.	.	.	.	.	.	.	.	16cc\JJ	.	16aa\JJ	.
8G\L	4	.	8G\	sta-	.	8d\	sta-	.	16cc\LL	sta-	.	16aa\LL	sta-	.	8d\L	.	16cc\LL	.	16aa\LL	.
.	3	.	.	.	.	.	.	.	16b-\JJ	.	.	16gg\JJ	.	.	.	.	16b-\JJ	.	16gg\JJ	.
8G\	.	.	8G\	-re	.	8d\	-re	.	8b-\	-re	.	8gg\	-re	.	8d\	.	16r	.	16r	.
.	.	.	.	.	.	.	.	.	.	.	.	.	.	.	.	.	16b-\	.	16gg\	.
8G\	.	.	4r	.	.	4r	.	.	4r	.	.	4r	.	.	8d\	.	16b-\LL	.	16gg\LL	.
.	.	.	.	.	.	.	.	.	.	.	.	.	.	.	.	.	16b-\	.	16gg\	.
8G\J	.	.	.	.	.	.	.	.	.	.	.	.	.	.	8d\J	.	16b-\	.	16gg\	.
.	.	.	.	.	.	.	.	.	.	.	.	.	.	.	.	.	16b-\JJ	.	16gg\JJ	.
=34	=34	=34	=34	=34	=34	=34	=34	=34	=34	=34	=34	=34	=34	=34	=34	=34	=34	=34	=34	=34
8BB-/L	6	.	4.BB-/	te	.	4.B-\	te	.	4.g\	te	.	4.dd\	te	.	16B-\LL	.	16dd\LL	.	16ddd\LL	.
.	.	.	.	.	.	.	.	.	.	.	.	.	.	.	16B-\	.	16dd\	.	16gg\	.
8BB-/	.	.	.	.	.	.	.	.	.	.	.	.	.	.	16B-\	.	16dd\	.	16gg\	.
.	.	.	.	.	.	.	.	.	.	.	.	.	.	.	16B-\JJ	.	16dd\JJ	.	16gg\JJ	.
8BB-/	.	.	.	.	.	.	.	.	.	.	.	.	.	.	16B-\LL	.	16dd\LL	.	16gg\LL	.
.	.	.	.	.	.	.	.	.	.	.	.	.	.	.	16B-\	.	16dd\	.	16gg\	.
8BB-/J	.	.	8BB-/	li-	.	8d\	li-	.	8g\	li-	.	8dd\	li-	.	16B-\	.	16dd\	.	16gg\	.
.	.	.	.	.	.	.	.	.	.	.	.	.	.	.	16B-\JJ	.	16dd\JJ	.	16gg\JJ	.
*xywh-#39:7122,777,4896,677	*	*	*	*	*	*	*	*	*	*	*	*	*	*	*	*	*	*	*	*
!LO:PB:g=original	!	!	!	!	!	!	!	!	!	!	!	!	!	!	!	!	!	!	!	!
8C/L	6	.	4C/	-ben-	.	4c\	-ben-	.	4a-X\	-ben-	.	4ee-\	-ben-	.	16c\LL	.	16ee-\LL	.	16aa-X\LL	.
.	.	.	.	.	.	.	.	.	.	.	.	.	.	.	16c\	.	16ee-\	.	16aa-\	.
8C/	-	.	.	.	.	.	.	.	.	.	.	.	.	.	16c\	.	16ee-\	.	16aa-\	.
.	.	.	.	.	.	.	.	.	.	.	.	.	.	.	16c\JJ	.	16ee-\JJ	.	16aa-\JJ	.
8C/	.	.	4C/	-ter	.	4c\	-ter	.	4a-\	-ter	.	4ee-\	-ter	.	16c\LL	.	16ee-\LL	.	16aa-\LL	.
.	.	.	.	.	.	.	.	.	.	.	.	.	.	.	16c\	.	16ee-\	.	16aa-\	.
8C/J	.	.	.	.	.	.	.	.	.	.	.	.	.	.	16c\	.	16ee-\	.	16aa-\	.
.	.	.	.	.	.	.	.	.	.	.	.	.	.	.	16c\JJ	.	16ee-\JJ	.	16aa-\JJ	.
=35	=35	=35	=35	=35	=35	=35	=35	=35	=35	=35	=35	=35	=35	=35	=35	=35	=35	=35	=35	=35
*	*	*	*xywh-#12:7290,7061,4865,675	*	*	*	*	*	*	*	*	*	*	*	*	*	*xywh-#23:7235,6372,4814,619	*	*xywh-#18:2075,4417,4805,579	*
!LO:TX:t=P:problem=niejednoznaczny zapis b.c.	!	!	!LO:LB:g=original	!	!	!	!	!	!	!	!	!	!	!	!	!	!LO:LB:g=original	!	!LO:LB:g=original	!
8C#X/L	6	.	4.C#X/	so-	.	4.en\	so-	.	4.an\	so-	.	4.een\	so-	.	16c#X\LL	.	16een\LL	.	16aan\LL	.
.	.	.	.	.	.	.	.	.	.	.	.	.	.	.	16c#\	.	16ee\	.	16aa\	.
8C#/	n	.	.	.	.	.	.	.	.	.	.	.	.	.	16c#\	.	16ee\	.	16aa\	.
.	.	.	.	.	.	.	.	.	.	.	.	.	.	.	16c#\JJ	.	16ee\JJ	.	16aa\JJ	.
8C#/	.	.	.	.	.	.	.	.	.	.	.	.	.	.	16c#\LL	.	16ee\LL	.	16aa\LL	.
.	.	.	.	.	.	.	.	.	.	.	.	.	.	.	16c#\	.	16ee\	.	16aa\	.
8C#/J	.	.	8C#/	-ci-	.	8An\	-ci-	.	8a\	-ci-	.	8ee\	-ci-	.	16c#\	.	16ee\	.	16aa\	.
.	.	.	.	.	.	.	.	.	.	.	.	.	.	.	16c#\JJ	.	16ee\JJ	.	16aa\JJ	.
*	*	*	*	*	*	*xywh-#10:2225,5522,4890,652	*	*	*	*	*	*	*	*	*	*	*	*	*	*
!	!	!	!	!	!	!LO:LB:g=original	!	!	!	!	!	!	!	!	!	!	!	!	!	!
8D/L	#	.	4D/	-a-	.	4d\	-a-	.	4a\	-a-	.	4ff#X\	-a-	.	16d\LL	.	16ff#X\LL	.	16aa\LL	.
.	.	.	.	.	.	.	.	.	.	.	.	.	.	.	16d\	.	16ff#\	.	16aa\	.
8D/	.	.	.	.	.	.	.	.	.	.	.	.	.	.	16d\	.	16ff#\	.	16aa\	.
.	.	.	.	.	.	.	.	.	.	.	.	.	.	.	16d\JJ	.	16ff#\JJ	.	16aa\JJ	.
8D/	.	.	8D/	-re	.	8d\	-re	.	8a\	-re	.	8ff#\	-re	.	16d\LL	.	16ff#\LL	.	16aa\LL	.
.	.	.	.	.	.	.	.	.	.	.	.	.	.	.	16d\	.	16ff#\	.	16aa\	.
8D/J	.	.	16r	.	.	16r	.	.	16r	.	.	16r	.	.	16d\	.	16ff#\	.	16aa\	.
.	.	.	16D/	in	.	16A\	in	.	16f#X\	in	.	16dd\	in	.	16d\JJ	.	16ff#\JJ	.	16aa\JJ	.
*	*	*	*	*	*	*	*	*	*	*	*	*	*	*	*Xtremolo	*	*Xtremolo	*	*Xtremolo	*
=36	=36	=36	=36	=36	=36	=36	=36	=36	=36	=36	=36	=36	=36	=36	=36	=36	=36	=36	=36	=36
*	*	*	*	*	*	*	*	*	*	*	*	*	*	*	*xywh-#29:2249,2443,4777,540	*	*	*	*	*
*	*	*	*	*	*	*2\right	*	*	*2\right	*	*	*2\right	*	*	*	*	*	*	*	*
!	!	!	!	!	!	!LO:LB:g=original	!	!	!	!	!	!	!	!	!LO:LB:g=original	!	!	!	!	!
!	!	!	!	!	!	!LO:SIC:v:s=2An	!	!	!LO:SIC:v:s=2f#	!	!	!	!	!	!	!	!	!	!	!
8Cn/L	4# 3	.	2Cn/	pla-	.	2A-\	plan-	.	2f\	plan-	.	2ee-\	plan-	.	16r	.	16r	.	16r	.
.	.	.	.	.	.	.	.	.	.	.	.	.	.	.	16An/LL	.	16f#X/LL	.	16ee-\LL	.
8C/	.	.	.	.	.	.	.	.	.	.	.	.	.	.	16A/	.	16f#/	.	16ee-\	.
.	.	.	.	.	.	.	.	.	.	.	.	.	.	.	16A/JJ	.	16f#/JJ	.	16ee-\JJ	.
*	*	*	*	*	*	*	*	*	*	*	*	*	*	*	*tremolo	*	*tremolo	*	*tremolo	*
!	!	!	!	!	!	!	!	!	!	!	!	!	!	!	!	!	!	!	!LO:SIC:s=16ee-LL	!
8C/	.	.	.	.	.	.	.	.	.	.	.	.	.	.	16A/LL	.	16f#/LL	.	16ee-'\LL	.
!	!	!	!	!	!	!	!	!	!	!	!	!	!	!	!	!	!	!	!LO:SIC:s=16ee-	!
.	.	.	.	.	.	.	.	.	.	.	.	.	.	.	16A/	.	16f#/	.	16ee-'\	.
!	!	!	!	!	!	!	!	!	!	!	!	!	!	!	!	!	!	!	!LO:SIC:s=16ee-	!
8C/J	.	.	.	.	.	.	.	.	.	.	.	.	.	.	16A/	.	16f#/	.	16ee-'\	.
!	!	!	!	!	!	!	!	!	!	!	!	!	!	!	!	!	!	!	!LO:SIC:s=16ee-JJ	!
.	.	.	.	.	.	.	.	.	.	.	.	.	.	.	16A/JJ	.	16f#/JJ	.	16ee-'\JJ	.
*	*	*	*	*	*	*	*	*	*	*	*	*	*	*	*Xtremolo	*	*Xtremolo	*	*Xtremolo	*
8BB-/L	6	.	4BB-/	-ctu	.	4B-\	-ctu	.	4g\	-ctu	.	4dd\	-ctu	.	16r	.	16g/LL	.	16r	.
.	.	.	.	.	.	.	.	.	.	.	.	.	.	.	16B-/LL	.	16g/	.	16dd\LL	.
8BB-/	.	.	.	.	.	.	.	.	.	.	.	.	.	.	16B-/	.	16g/	.	16dd\	.
.	.	.	.	.	.	.	.	.	.	.	.	.	.	.	16B-/JJ	.	16g/JJ	.	16dd\JJ	.
*	*	*	*	*ij	*	*	*ij	*	*	*	*	*	*	*	*tremolo	*	*tremolo	*	*tremolo	*
8BB-/	.	.	8r	.	.	8r	.	.	8r	.	.	8r	.	.	16B-/LL	.	16g/LL	.	16dd\LL	.
.	.	.	.	.	.	.	.	.	.	.	.	.	.	.	16B-/	.	16g/	.	16dd\	.
8BB-/J	.	.	16r	.	.	16r	.	.	16r	.	.	16r	.	.	16B-/	.	16g/	.	16dd\	.
.	.	.	16B-\	in	.	16B-\	in	.	16g\	in	.	16dd\	in	.	16B-/JJ	.	16g/JJ	.	16dd\JJ	.
*	*	*	*2\right	*	*	*	*	*	*	*	*	*	*	*	*Xtremolo	*	*Xtremolo	*	*Xtremolo	*
=37	=37	=37	=37	=37	=37	=37	=37	=37	=37	=37	=37	=37	=37	=37	=37	=37	=37	=37	=37	=37
*	*	*	*	*	*	*	*	*	*xywh-#8:2237,2751,4849,574	*	*	*	*	*	*	*	*	*	*	*
!	!	!	!	!	!	!	!	!	!LO:LB:g=original	!	!	!	!	!	!	!	!	!	!	!
8AAn/L	.	.	2An\	pla-	.	2d\	plan-	.	2cc\	plan-	.	2ff#X\	plan-	.	16r	.	16r	.	16r	.
.	.	.	.	.	.	.	.	.	.	.	.	.	.	.	16d\LL	.	16cc\LL	.	16ff#X\LL	.
8AA/	.	.	.	.	.	.	.	.	.	.	.	.	.	.	16d\	.	16cc\	.	16ff#\	.
.	.	.	.	.	.	.	.	.	.	.	.	.	.	.	16d\JJ	.	16cc\JJ	.	16ff#\JJ	.
*	*	*	*	*	*	*	*	*	*	*	*	*	*	*	*tremolo	*	*tremolo	*	*tremolo	*
8AA/	.	.	.	.	.	.	.	.	.	.	.	.	.	.	16d\LL	.	16cc\LL	.	16ff#\LL	.
.	.	.	.	.	.	.	.	.	.	.	.	.	.	.	16d\	.	16cc\	.	16ff#\	.
8AA/J	.	.	.	.	.	.	.	.	.	.	.	.	.	.	16d\	.	16cc\	.	16ff#\	.
.	.	.	.	.	.	.	.	.	.	.	.	.	.	.	16d\JJ	.	16cc\JJ	.	16ff#\JJ	.
*	*	*	*	*	*	*	*	*	*	*	*	*	*	*	*Xtremolo	*	*Xtremolo	*	*Xtremolo	*
*	*	*	*	*	*	*	*	*	*	*	*	*xywh-#5:2216,3074,4850,570	*	*	*	*	*	*	*	*
!	!	!	!	!	!	!	!	!	!	!	!	!LO:LB:g=original	!	!	!LO:TX:t=P:problem=mixed beam	!	!	!	!	!
8GG/L	.	.	8G\	-ctu	.	8d\	-ctu	.	8b-\	-ctu	.	16gg\LL	-ctu	.	8d\L	.	16b-\LL	.	16gg\LL	.
*	*	*	*	*Xij	*	*	*Xij	*	*	*	*	*	*	*	*	*	*	*	*	*
.	.	.	.	.	.	.	.	.	.	.	.	16dd\JJ	.	.	.	.	16b-\	.	16dd\	.
8C/	6 4	.	8c\	de-	.	8e-\	de-	.	16cc\LL	de-	.	16ee-\LL	de-	.	8c\	.	16cc\	.	16ee-\	.
.	.	.	.	.	.	.	.	.	16an\JJ	.	.	16cc\JJ	.	.	.	.	16an\JJ	.	16cc\JJ	.
8D/	5 #	.	8d\	-si-	.	8d\	-si-	.	8g\	-si-	.	8b-\	-si-	.	8d\	.	8g/L	.	8b-\L	.
8DD/J	1 7 3	.	8D\	-de-	.	8d\	-de-	.	8f#X\	-de-	.	8an\	-de-	.	8D/J	.	8f#X/J	.	8an\J	.
=38	=38	=38	=38	=38	=38	=38	=38	=38	=38	=38	=38	=38	=38	=38	=38	=38	=38	=38	=38	=38
!	!	!	!	!	!	!	!	!	!	!	!	!	!	!	!LO:TX:t=P:problem=mixed beam	!	!	!	!	!
4GG/	.	.	4G\	-ro	.	4d\	-ro	.	4g\	-ro	.	4g\	-ro	.	16g\LL	.	16g/LL	.	4g/	.
.	.	.	.	.	.	.	.	.	.	.	.	.	.	.	16G/	.	16G/	.	.	.
.	.	.	.	.	.	.	.	.	.	.	.	.	.	.	16B-/	.	16B-/	.	.	.
.	.	.	.	.	.	.	.	.	.	.	.	.	.	.	16d/JJ	.	16d/JJ	.	.	.
4r	.	.	8r	.	.	8r	.	.	8r	.	.	8r	.	.	16c/LL	.	16c/LL	.	4r	.
.	.	.	.	.	.	.	.	.	.	.	.	.	.	.	16B-/	.	16B-/	.	.	.
!	!	!	!	!	!	!	!	!	!	!	!	!	!	!	!LO:SIC:v:s=16An	!	!	!	!	!
.	.	.	16r	.	.	16r	.	.	16r	.	.	16r	.	.	16A-/	.	16An/	.	.	.
.	.	.	16G\	in	.	16G\	in	.	16g\	in	.	16g\	in	.	16G/JJ	.	16G/JJ	.	.	.
*	*	*	*	*	*	*	*	*	*	*	*	*	*	*	*	*	*xywh-#23:7279,6918,4261,393	*	*	*
!	!	!	!	!	!	!	!	!	!	!	!	!	!	!	!	!	!LO:LB:g=original	!	!	!
8E-\L	6|	.	2E-\	plan-	.	(4.G\	plan-	.	2g\	plan-	.	2cc#X\	plan-	.	16r	.	16r	.	16r	.
.	.	.	.	.	.	.	.	.	.	.	.	.	.	.	16e-\LL	.	16g/LL	.	16cc#X\LL	.
8E-\	.	.	.	.	.	.	.	.	.	.	.	.	.	.	16e-\	.	16g/	.	16cc#\	.
.	.	.	.	.	.	.	.	.	.	.	.	.	.	.	16e-\JJ	.	16g/JJ	.	16cc#\JJ	.
*	*	*	*	*	*	*	*	*	*	*	*	*	*	*	*tremolo	*	*tremolo	*	*tremolo	*
8E-\	.	.	.	.	.	.	.	.	.	.	.	.	.	.	16e-\LL	.	16g/LL	.	16cc#\LL	.
.	.	.	.	.	.	.	.	.	.	.	.	.	.	.	16e-\	.	16g/	.	16cc#\	.
!	!	!	!	!	!	!LO:SIC:v:s=8A)	!	!	!	!	!	!	!	!	!	!	!	!	!	!
8E-\J	.	.	.	.	.	8A-\)	.	.	.	.	.	.	.	.	16e-\	.	16g/	.	16cc#\	.
.	.	.	.	.	.	.	.	.	.	.	.	.	.	.	16e-\JJ	.	16g/JJ	.	16cc#\JJ	.
*	*	*	*	*	*	*	*	*	*	*	*	*	*	*	*Xtremolo	*	*Xtremolo	*	*Xtremolo	*
=39	=39	=39	=39	=39	=39	=39	=39	=39	=39	=39	=39	=39	=39	=39	=39	=39	=39	=39	=39	=39
*xywh-#39:7081,1300,2994,576	*	*	*xywh-#12:7336,7521,4836,763	*	*	*	*	*	*	*	*	*	*	*	*	*	*	*	*	*
!LO:LB:g=original	!	!	!LO:LB:g=original	!	!	!LO:SIC:v:s=4An	!	!	!	!	!	!	!	!	!	!	!	!	!	!
8D\L	3#	.	4D\	-ctu	.	4A-\	-ctu	.	4f#X\	-ctu	.	4dd\	-ctu	.	16r	.	16r	.	16r	.
.	.	.	.	.	.	.	.	.	.	.	.	.	.	.	16An/LL	.	16f#X/LL	.	16dd\LL	.
8D\	.	.	.	.	.	.	.	.	.	.	.	.	.	.	16A/	.	16f#/	.	16dd\	.
.	.	.	.	.	.	.	.	.	.	.	.	.	.	.	16A/JJ	.	16f#/JJ	.	16dd\JJ	.
*	*	*	*	*	*	*	*	*	*	*	*	*	*	*	*tremolo	*	*tremolo	*	*tremolo	*
8D\	.	.	8r	.	.	8r	.	.	8r	.	.	8r	.	.	16A/LL	.	16f#/LL	.	16dd\LL	.
.	.	.	.	.	.	.	.	.	.	.	.	.	.	.	16A/	.	16f#/	.	16dd\	.
8D\J	.	.	16r	.	.	16r	.	.	16r	.	.	16r	.	.	16A/	.	16f#/	.	16dd\	.
!	!	!	!	!	!	!	!	!	!LO:SIC:v:s=16an	!	!	!	!	!	!	!	!	!	!	!
.	.	.	16D\	in	.	16d\	in	.	16a-\	in	.	16dd\	in	.	16A/JJ	.	16f#/JJ	.	16dd\JJ	.
*	*	*	*	*	*	*	*	*	*	*	*	*	*	*	*Xtremolo	*	*Xtremolo	*	*Xtremolo	*
*	*	*	*	*	*	*	*	*	*	*	*	*	*	*	*	*	*	*	*xywh-#18:2098,4906,1946,501	*
!	!	!	!	!	!	!	!	!	!LO:SIC:v:s=2a	!	!	!	!	!	!	!	!	!	!LO:LB:g=original	!
8C\L	4# 2	.	2C\	plan-	.	2d\	plan-	.	2a-\	plan-	.	2ff#X\	plan-	.	16r	.	16r	.	16r	.
.	.	.	.	.	.	.	.	.	.	.	.	.	.	.	16d\LL	.	16an/LL	.	16ff#X\LL	.
8C\	.	.	.	.	.	.	.	.	.	.	.	.	.	.	16d\	.	16a/	.	16ff#\	.
.	.	.	.	.	.	.	.	.	.	.	.	.	.	.	16d\JJ	.	16a/JJ	.	16ff#\JJ	.
*	*	*	*	*	*	*	*	*	*	*	*	*	*	*	*tremolo	*	*tremolo	*	*tremolo	*
8C\	.	.	.	.	.	.	.	.	.	.	.	.	.	.	16d\LL	.	16a/LL	.	16ff#\LL	.
.	.	.	.	.	.	.	.	.	.	.	.	.	.	.	16d\	.	16a/	.	16ff#\	.
8C\J	.	.	.	.	.	.	.	.	.	.	.	.	.	.	16d\	.	16a/	.	16ff#\	.
.	.	.	.	.	.	.	.	.	.	.	.	.	.	.	16d\JJ	.	16a/JJ	.	16ff#\JJ	.
*	*	*	*	*	*	*	*	*	*	*	*	*	*	*	*Xtremolo	*	*Xtremolo	*	*Xtremolo	*
=40	=40	=40	=40	=40	=40	=40	=40	=40	=40	=40	=40	=40	=40	=40	=40	=40	=40	=40	=40	=40
*	*	*	*	*	*	*xywh-#10:2253,6072,3300,589	*	*	*	*	*	*	*	*	*xywh-#29:2224,2911,1511,558	*	*	*	*	*
!	!	!	!	!	!	!	!	!	!	!	!	!	!	!	!LO:LB:g=original	!	!	!	!	!
!	!	!	!	!	!	!	!	!	!	!	!	!	!	!	!LO:TX:t=P:problem=mixed beam	!	!	!	!	!
8BB-/L	6	.	8BB-/	-ctu	.	8d\	-ctu	.	16g\LL	-ctu	.	16gg\LL	-ctu	.	8d\L	.	16g/LL	.	16gg\LL	.
.	.	.	.	.	.	.	.	.	16b-\JJ	.	.	16dd\JJ	.	.	.	.	16b-/	.	16dd\	.
8C/	.	.	8C/	de-	.	8e-\	de-	.	16cc\LL	de-	.	16ee-\LL	de-	.	8e-\	.	16cc/	.	16ee-\	.
.	.	.	.	.	.	.	.	.	16an\JJ	.	.	16cc\JJ	.	.	.	.	16an/JJ	.	16cc\JJ	.
8D/	6 4	.	8D/	-si-	.	8d\	-si-	.	8g\	-si-	.	8b-\	-si-	.	8d\	.	8g/L	.	8b-\L	.
8DD/J	5 #	.	8D/	-de-	.	8d\	-de-	.	8f#X\	-de-	.	8an\	-de-	.	8D/J	.	8f#X/J	.	8an\J	.
4GG/	.	.	8GG/	-ro	.	8d\	-ro	.	8g\	-ro	.	8g\	-ro	.	4G/	.	4g/	.	4g\	.
.	.	.	8G\	in	.	8Bn\	in	.	8g\	in	.	8dd\	in	.	.	.	.	.	.	.
*	*	*	*	*	*	*	*	*	*xywh-#8:2196,3289,1931,558	*	*	*	*	*	*	*	*	*	*	*
!	!	!	!	!	!	!	!	!	!LO:LB:g=original	!	!	!	!	!	!	!	!	!	!	!
8r	.	.	8G\	plan-	.	8B\	plan-	.	8g\	plan-	.	8dd\	plan-	.	8r	.	8r	.	8r	.
8G\	5 3n	.	16G\	-ctu	.	16B\	-ctu	.	16g\	-ctu	.	16dd\	-ctu	.	8G/	.	8bn\	.	8dd\	.
.	.	.	16G\	de-	.	16B\	de-	.	16g\	de-	.	16dd\	de-	.	.	.	.	.	.	.
=41	=41	=41	=41	=41	=41	=41	=41	=41	=41	=41	=41	=41	=41	=41	=41	=41	=41	=41	=41	=41
*2\right	*	*	*	*	*	*	*	*	*	*	*	*	*	*	*	*	*2\right	*	*2\right	*
2G\	6 4	.	4.G\	-si-	.	4.c\	-si-	.	4.g\	-si-	.	4.ee-\	-si-	.	2G/	.	2cc\	.	2ee-\	.
.	.	.	8G\	-de-	.	8c\	-de-	.	8g\	-de-	.	8ee-\	-de-	.	.	.	.	.	.	.
2GG/	5 3n	.	2G\	-ro	.	2Bn\	-ro	.	2g\	-ro	.	2dd\	-ro	.	2G/	.	2bn\	.	2dd\	.
==	==	==	==	==	==	==	==	==	==	==	==	==	==	==	==	==	==	==	==	==
*-	*-	*-	*-	*-	*-	*-	*-	*-	*-	*-	*-	*-	*-	*-	*-	*-	*-	*-	*-	*-
!!!system-decoration: [g1][g2]{g3}
!!!ENC: Anna Matuszewska
!!!END: 2020-04-10
!!!YEC: Copyright 2022 Narodowy Instytut Fryderyka Chopina (https://polishscores.org)
!!!YEM: Licence CC BY 4.0 (https://creativecommons.org/licenses/by/4.0)
!!!IIIF: https://repozytorium.nifc.pl/islandora/object/pl-cz%3A33216/datastream/IIIF/view
!!!ENC-iiif: Olaf Gawdzik
!!!END-iiif: 2022-09-11
!!!ENC-modern: Andrzej Borzym
!!!END-modern: 2022-08-31
